(.../eagle/ulp/pcb_gcode/pcb-gcode.ulp)
(Copyright 2005 - 2012 by John Johnson)
(See readme.txt for licensing terms.)
(This file generated from the board:)
(.../boards/siewchin/Hello/Hello.brd)
(Current profile is .../ulp/pcb_gcode/profiles/mach.pp  )
(This file generated 8/3/2016 10:18:47 AM)
(Settings from pcb-machine.h)
(spindle on time = 3.0000)
(  Tool Size)
(0.1200  )
(spindle speed = 30000.0000)
(tool change at 0.0000  0.0000  25.4000 )
(feed rate xy = F508   )
(feed rate z  = F254   )
(Z Axis Settings)
(  High     Up        Down     Drill)
(12.7000 	2.5400  	-0.1778 	-0.8128 )
(Settings from pcb-defaults.h)
(isolate min = 0.1200)
(isolate max = 0.5080)
(isolate step = 0.1270)
(Generated top outlines, )
(Unit of measure: mm)
(Metric Mode)
G21
(Absolute Coordinates)
G90
S30000
G00 Z12.7000 
G00 X0.0000  Y0.0000  
M03
G04 P3.000000
G00 Z2.5400  
G00 X0.7666  Y0.0966  
G01 Z-0.1778 F254   
G01 X1.2137  Y0.0966  F508   
G01 X0.7666  Y0.6182  
G01 X0.7666  Y0.0966  
G00 Z2.5400  
G00 X1.6729  Y0.5824  
G01 Z-0.1778 F254   
G01 X30.7823 Y0.5824  F508   
G01 X31.5876 Y1.3877  
G01 X31.5876 Y33.1123 
G01 X30.7828 Y33.9171 
G01 X2.3504  Y33.8181 
G01 X1.2524  Y32.8045 
G01 X1.2524  Y1.0730  
G01 X1.6729  Y0.5824  
G00 Z2.5400  
G00 X2.7674  Y2.1721  
G01 Z-0.1778 F254   
G01 X2.7375  Y2.2025  F508   
G01 X2.7072  Y2.2327  
G01 X2.6848  Y2.2716  
G01 X2.6635  Y2.3085  
G01 X2.6518  Y2.3518  
G01 X2.6408  Y2.3930  
G01 X2.6408  Y2.4378  
G01 X2.6408  Y2.4806  
G01 X2.6916  Y10.5960 
G01 X2.6916  Y24.0738 
G01 X2.7143  Y24.1583 
G01 X2.7580  Y24.2341 
G01 X2.8199  Y24.2960 
G01 X2.8957  Y24.3397 
G01 X2.9802  Y24.3624 
G01 X4.9500  Y24.3624 
G01 X4.9500  Y24.4658 
G01 X4.9774  Y24.5320 
G01 X5.0280  Y24.5826 
G01 X5.0942  Y24.6100 
G01 X8.9638  Y24.6100 
G01 X8.4149  Y24.8000 
G01 X5.0942  Y24.8000 
G01 X5.0280  Y24.8274 
G01 X4.9774  Y24.8780 
G01 X4.9500  Y24.9442 
G01 X4.9500  Y25.8158 
G01 X4.9774  Y25.8820 
G01 X5.0280  Y25.9326 
G01 X5.0942  Y25.9600 
G01 X9.0658  Y25.9600 
G01 X9.1320  Y25.9326 
G01 X9.1826  Y25.8820 
G01 X9.2100  Y25.8158 
G01 X9.2100  Y25.2283 
G01 X10.9822 Y24.6148 
G01 X12.5072 Y24.6148 
G01 X12.5734 Y24.5874 
G01 X12.6240 Y24.5368 
G01 X12.6514 Y24.4706 
G01 X12.6514 Y23.7894 
G01 X12.6240 Y23.7232 
G01 X12.5734 Y23.6726 
G01 X12.5072 Y23.6452 
G01 X10.2258 Y23.6452 
G01 X10.1596 Y23.6726 
G01 X10.1090 Y23.7232 
G01 X10.0816 Y23.7894 
G01 X10.0816 Y24.2230 
G01 X9.1791  Y24.5355 
G01 X9.1826  Y24.5320 
G01 X9.2100  Y24.4658 
G01 X9.2100  Y23.5942 
G01 X9.1826  Y23.5280 
G01 X9.1320  Y23.4774 
G01 X9.0658  Y23.4500 
G01 X5.0942  Y23.4500 
G01 X5.0280  Y23.4774 
G01 X4.9774  Y23.5280 
G01 X4.9500  Y23.5942 
G01 X4.9500  Y23.6976 
G01 X3.3564  Y23.6976 
G01 X3.3564  Y10.6377 
G01 X3.3564  Y10.5942 
G01 X3.3564  Y10.5512 
G01 X3.3077  Y2.7692  
G01 X12.2491 Y2.7692  
G01 X12.2982 Y3.2500  
G01 X12.0292 Y3.2500  
G01 X11.9630 Y3.2774  
G01 X11.9124 Y3.3280  
G01 X11.8850 Y3.3942  
G01 X11.8850 Y4.3676  
G01 X9.6460  Y4.3676  
G01 X9.6460  Y3.9117  
G01 X9.6186  Y3.8455  
G01 X9.5680  Y3.7949  
G01 X9.5018  Y3.7675  
G01 X8.1602  Y3.7675  
G01 X8.0940  Y3.7949  
G01 X8.0434  Y3.8455  
G01 X8.0160  Y3.9117  
G01 X8.0160  Y5.8883  
G01 X8.0434  Y5.9545  
G01 X8.0940  Y6.0051  
G01 X8.1602  Y6.0325  
G01 X9.5018  Y6.0325  
G01 X9.5680  Y6.0051  
G01 X9.6186  Y5.9545  
G01 X9.6460  Y5.8883  
G01 X9.6460  Y5.0324  
G01 X11.8850 Y5.0324  
G01 X11.8850 Y6.0058  
G01 X11.9124 Y6.0720  
G01 X11.9630 Y6.1226  
G01 X12.0292 Y6.1500  
G01 X13.3708 Y6.1500  
G01 X13.4370 Y6.1226  
G01 X13.4876 Y6.0720  
G01 X13.5150 Y6.0058  
G01 X13.5150 Y3.3942  
G01 X13.4876 Y3.3280  
G01 X13.4370 Y3.2774  
G01 X13.3708 Y3.2500  
G01 X12.9665 Y3.2500  
G01 X12.9168 Y2.7646  
G01 X16.1311 Y2.7241  
G01 X16.1752 Y6.1655  
G01 X13.7736 Y7.6398  
G01 X13.7388 Y7.6601  
G01 X13.7334 Y7.6644  
G01 X13.7056 Y7.6938  
G01 X13.6773 Y7.7224  
G01 X13.6756 Y7.7254  
G01 X13.6539 Y7.7635  
G01 X13.6340 Y7.7985  
G01 X13.6332 Y7.8018  
G01 X13.6315 Y7.8049  
G01 X13.6221 Y7.8442  
G01 X13.6119 Y7.8831  
G01 X13.6120 Y7.8866  
G01 X13.6111 Y7.8900  
G01 X13.6122 Y7.9305  
G01 X13.6375 Y11.9291 
G01 X13.6356 Y11.9618 
G01 X13.6378 Y11.9727 
G01 X13.6379 Y11.9839 
G01 X13.6466 Y12.0154 
G01 X13.6531 Y12.0475 
G01 X13.6581 Y12.0575 
G01 X13.6611 Y12.0683 
G01 X13.6776 Y12.0965 
G01 X14.1456 Y13.0325 
G01 X14.1456 Y25.4438 
G01 X14.1683 Y25.5283 
G01 X14.2120 Y25.6041 
G01 X14.2739 Y25.6660 
G01 X14.3497 Y25.7097 
G01 X14.4342 Y25.7324 
G01 X15.2886 Y25.7324 
G01 X15.2886 Y25.7406 
G01 X15.3160 Y25.8068 
G01 X15.3666 Y25.8574 
G01 X15.4328 Y25.8848 
G01 X17.7142 Y25.8848 
G01 X17.7804 Y25.8574 
G01 X17.8310 Y25.8068 
G01 X17.8408 Y25.7832 
G01 X19.9876 Y25.7832 
G01 X19.9876 Y28.1300 
G01 X19.6142 Y28.1300 
G01 X19.5480 Y28.1574 
G01 X19.4974 Y28.2080 
G01 X19.4700 Y28.2742 
G01 X19.4700 Y30.1458 
G01 X19.4974 Y30.2120 
G01 X19.5480 Y30.2626 
G01 X19.6142 Y30.2900 
G01 X21.2858 Y30.2900 
G01 X21.3520 Y30.2626 
G01 X21.4026 Y30.2120 
G01 X21.4300 Y30.1458 
G01 X21.4300 Y29.5326 
G01 X24.0516 Y29.5062 
G01 X24.0516 Y29.8300 
G01 X24.0790 Y29.8962 
G01 X24.1296 Y29.9468 
G01 X24.1958 Y29.9742 
G01 X26.8074 Y29.9742 
G01 X26.8736 Y29.9468 
G01 X26.9242 Y29.8962 
G01 X26.9516 Y29.8300 
G01 X26.9516 Y28.4884 
G01 X26.9242 Y28.4222 
G01 X26.8736 Y28.3716 
G01 X26.8074 Y28.3442 
G01 X24.1958 Y28.3442 
G01 X24.1296 Y28.3716 
G01 X24.0790 Y28.4222 
G01 X24.0516 Y28.4884 
G01 X24.0516 Y28.8414 
G01 X21.4300 Y28.8677 
G01 X21.4300 Y28.2742 
G01 X21.4026 Y28.2080 
G01 X21.3520 Y28.1574 
G01 X21.2858 Y28.1300 
G01 X20.6524 Y28.1300 
G01 X20.6524 Y25.5907 
G01 X20.6771 Y25.5479 
G01 X20.7032 Y25.4505 
G01 X20.7032 Y25.3495 
G01 X20.6771 Y25.2521 
G01 X20.6266 Y25.1647 
G01 X20.5553 Y25.0934 
G01 X20.4679 Y25.0429 
G01 X20.3705 Y25.0168 
G01 X17.8408 Y25.0168 
G01 X17.8310 Y24.9932 
G01 X17.7804 Y24.9426 
G01 X17.7142 Y24.9152 
G01 X15.4328 Y24.9152 
G01 X15.3666 Y24.9426 
G01 X15.3160 Y24.9932 
G01 X15.2886 Y25.0594 
G01 X15.2886 Y25.0676 
G01 X14.8104 Y25.0676 
G01 X14.8104 Y12.9640 
G01 X14.8124 Y12.9302 
G01 X14.8104 Y12.9203 
G01 X14.8104 Y12.9102 
G01 X14.8017 Y12.8776 
G01 X14.7949 Y12.8445 
G01 X14.7904 Y12.8354 
G01 X14.7877 Y12.8257 
G01 X14.7708 Y12.7964 
G01 X14.3019 Y11.8585 
G01 X14.2782 Y8.1101  
G01 X16.6819 Y6.6345  
G01 X16.7175 Y6.6133  
G01 X16.7212 Y6.6104  
G01 X16.7497 Y6.5803  
G01 X16.7786 Y6.5507  
G01 X16.7814 Y6.5469  
G01 X16.8012 Y6.5103  
G01 X16.8214 Y6.4743  
G01 X16.8231 Y6.4699  
G01 X16.8327 Y6.4296  
G01 X16.8429 Y6.3895  
G01 X16.8435 Y6.3848  
G01 X16.8423 Y6.3434  
G01 X16.7959 Y2.7200  
G01 X19.6828 Y2.7200  
G01 X19.6828 Y3.1092  
G01 X19.7102 Y3.1754  
G01 X19.7608 Y3.2260  
G01 X19.8270 Y3.2534  
G01 X22.1846 Y3.2534  
G01 X22.2508 Y3.2260  
G01 X22.3014 Y3.1754  
G01 X22.3288 Y3.1092  
G01 X22.3288 Y2.6438  
G01 X26.2868 Y2.6438  
G01 X26.2868 Y3.1092  
G01 X26.3142 Y3.1754  
G01 X26.3648 Y3.2260  
G01 X26.4310 Y3.2534  
G01 X28.7886 Y3.2534  
G01 X28.8548 Y3.2260  
G01 X28.9054 Y3.1754  
G01 X28.9328 Y3.1092  
G01 X28.9328 Y1.5136  
G01 X28.9054 Y1.4474  
G01 X28.8548 Y1.3968  
G01 X28.7886 Y1.3694  
G01 X26.4310 Y1.3694  
G01 X26.3648 Y1.3968  
G01 X26.3142 Y1.4474  
G01 X26.2868 Y1.5136  
G01 X26.2868 Y1.9790  
G01 X22.3288 Y1.9790  
G01 X22.3288 Y1.5136  
G01 X22.3014 Y1.4474  
G01 X22.2508 Y1.3968  
G01 X22.1846 Y1.3694  
G01 X19.8270 Y1.3694  
G01 X19.7608 Y1.3968  
G01 X19.7102 Y1.4474  
G01 X19.6828 Y1.5136  
G01 X19.6828 Y2.0552  
G01 X16.5008 Y2.0552  
G01 X16.4569 Y2.0552  
G01 X16.4154 Y2.0552  
G01 X12.5738 Y2.1041  
G01 X12.5589 Y2.1017  
G01 X12.5322 Y2.1044  
G01 X3.0159  Y2.1044  
G01 X2.9721  Y2.1044  
G01 X2.9294  Y2.1044  
G01 X2.8859  Y2.1161  
G01 X2.8449  Y2.1271  
G01 X2.8060  Y2.1495  
G01 X2.7691  Y2.1708  
G00 Z2.5400  
G00 X4.7414  Y3.8455  
G01 Z-0.1778 F254   
G01 X4.7140  Y3.9117  F508   
G01 X4.7140  Y5.8883  
G01 X4.7414  Y5.9545  
G01 X4.7920  Y6.0051  
G01 X4.8582  Y6.0325  
G01 X5.1966  Y6.0325  
G01 X5.1966  Y15.1708 
G01 X5.2193  Y15.2553 
G01 X5.2630  Y15.3311 
G01 X5.3249  Y15.3930 
G01 X5.6085  Y15.6766 
G01 X5.6085  Y17.1238 
G01 X5.6359  Y17.1900 
G01 X5.6865  Y17.2406 
G01 X5.7527  Y17.2680 
G01 X7.6273  Y17.2680 
G01 X7.6935  Y17.2406 
G01 X7.7441  Y17.1900 
G01 X7.7715  Y17.1238 
G01 X7.7715  Y15.4522 
G01 X7.7441  Y15.3860 
G01 X7.6935  Y15.3354 
G01 X7.6273  Y15.3080 
G01 X6.1801  Y15.3080 
G01 X5.8614  Y14.9893 
G01 X5.8614  Y6.0325  
G01 X6.1998  Y6.0325  
G01 X6.2660  Y6.0051  
G01 X6.3166  Y5.9545  
G01 X6.3440  Y5.8883  
G01 X6.3440  Y3.9117  
G01 X6.3166  Y3.8455  
G01 X6.2660  Y3.7949  
G01 X6.1998  Y3.7675  
G01 X4.8582  Y3.7675  
G01 X4.7920  Y3.7949  
G01 X4.7414  Y3.8455  
G00 Z2.5400  
G00 X11.1005 Y6.7301  
G01 Z-0.1778 F254   
G01 X11.0568 Y6.8059  F508   
G01 X11.0341 Y6.8904  
G01 X11.0341 Y17.2952 
G01 X10.2258 Y17.2952 
G01 X10.1596 Y17.3226 
G01 X10.1090 Y17.3732 
G01 X10.0816 Y17.4394 
G01 X10.0816 Y18.1206 
G01 X10.1090 Y18.1868 
G01 X10.1596 Y18.2374 
G01 X10.2258 Y18.2648 
G01 X12.5072 Y18.2648 
G01 X12.5734 Y18.2374 
G01 X12.6240 Y18.1868 
G01 X12.6514 Y18.1206 
G01 X12.6514 Y17.4394 
G01 X12.6240 Y17.3732 
G01 X12.5734 Y17.3226 
G01 X12.5072 Y17.2952 
G01 X11.6989 Y17.2952 
G01 X11.6989 Y7.2666  
G01 X13.1001 Y7.2666  
G01 X13.1120 Y7.2689  
G01 X13.1437 Y7.2666  
G01 X13.1756 Y7.2666  
G01 X13.1872 Y7.2635  
G01 X13.1993 Y7.2626  
G01 X13.2294 Y7.2522  
G01 X13.2601 Y7.2439  
G01 X13.2706 Y7.2379  
G01 X13.2820 Y7.2339  
G01 X13.3083 Y7.2161  
G01 X13.3359 Y7.2002  
G01 X13.3444 Y7.1916  
G01 X14.8821 Y6.1500  
G01 X15.9108 Y6.1500  
G01 X15.9770 Y6.1226  
G01 X16.0276 Y6.0720  
G01 X16.0550 Y6.0058  
G01 X16.0550 Y3.3942  
G01 X16.0276 Y3.3280  
G01 X15.9770 Y3.2774  
G01 X15.9108 Y3.2500  
G01 X14.5692 Y3.2500  
G01 X14.5030 Y3.2774  
G01 X14.4524 Y3.3280  
G01 X14.4250 Y3.3942  
G01 X14.4250 Y5.6567  
G01 X13.0298 Y6.6018  
G01 X11.3227 Y6.6018  
G01 X11.2382 Y6.6245  
G01 X11.1624 Y6.6682  
G01 X11.1005 Y6.7301  
G00 Z2.5400  
G00 X11.9124 Y8.7880  
G01 Z-0.1778 F254   
G01 X11.8850 Y8.8542  F508   
G01 X11.8850 Y11.4658 
G01 X11.9124 Y11.5320 
G01 X11.9630 Y11.5826 
G01 X12.0292 Y11.6100 
G01 X12.7722 Y11.6100 
G01 X12.9429 Y21.1748 
G01 X12.6273 Y21.1913 
G01 X12.6240 Y21.1832 
G01 X12.5734 Y21.1326 
G01 X12.5072 Y21.1052 
G01 X10.2258 Y21.1052 
G01 X10.1596 Y21.1326 
G01 X10.1090 Y21.1832 
G01 X10.0816 Y21.2494 
G01 X10.0816 Y21.9306 
G01 X10.1090 Y21.9968 
G01 X10.1596 Y22.0474 
G01 X10.2258 Y22.0748 
G01 X12.5072 Y22.0748 
G01 X12.5734 Y22.0474 
G01 X12.6240 Y21.9968 
G01 X12.6514 Y21.9306 
G01 X12.6514 Y21.8557 
G01 X12.9454 Y21.8404 
G01 X12.8996 Y26.9492 
G01 X12.8966 Y26.9702 
G01 X12.8992 Y26.9928 
G01 X12.8990 Y27.0156 
G01 X12.9043 Y27.0361 
G01 X12.9068 Y27.0571 
G01 X12.9152 Y27.0783 
G01 X12.9209 Y27.1003 
G01 X12.9313 Y27.1188 
G01 X13.3335 Y28.1285 
G01 X13.2862 Y28.1285 
G01 X13.2200 Y28.1559 
G01 X13.1694 Y28.2065 
G01 X13.1420 Y28.2727 
G01 X13.1420 Y30.1473 
G01 X13.1694 Y30.2135 
G01 X13.2200 Y30.2641 
G01 X13.2862 Y30.2915 
G01 X14.9578 Y30.2915 
G01 X15.0240 Y30.2641 
G01 X15.0746 Y30.2135 
G01 X15.1020 Y30.1473 
G01 X15.1020 Y28.2727 
G01 X15.0746 Y28.2065 
G01 X15.0240 Y28.1559 
G01 X14.9578 Y28.1285 
G01 X14.0491 Y28.1285 
G01 X13.5648 Y26.9125 
G01 X13.6130 Y21.5322 
G01 X13.6141 Y21.5278 
G01 X13.6140 Y21.5220 
G01 X13.6152 Y21.5164 
G01 X13.6135 Y21.4828 
G01 X13.6138 Y21.4492 
G01 X13.6126 Y21.4448 
G01 X13.4366 Y11.5828 
G01 X13.4876 Y11.5320 
G01 X13.5150 Y11.4658 
G01 X13.5150 Y8.8542  
G01 X13.4876 Y8.7880  
G01 X13.4370 Y8.7374  
G01 X13.3708 Y8.7100  
G01 X12.0292 Y8.7100  
G01 X11.9630 Y8.7374  
G01 X11.9124 Y8.7880  
G00 Z2.5400  
G00 X14.4524 Y8.7880  
G01 Z-0.1778 F254   
G01 X14.4250 Y8.8542  F508   
G01 X14.4250 Y11.4658 
G01 X14.4524 Y11.5320 
G01 X14.5030 Y11.5826 
G01 X14.5692 Y11.6100 
G01 X15.9108 Y11.6100 
G01 X15.9770 Y11.5826 
G01 X16.0276 Y11.5320 
G01 X16.0550 Y11.4658 
G01 X16.0550 Y8.9648  
G01 X17.4203 Y7.4444  
G01 X18.2819 Y7.4444  
G01 X18.9716 Y8.9620  
G01 X18.9716 Y17.9555 
G01 X18.5906 Y18.7176 
G01 X17.8584 Y18.7176 
G01 X17.8584 Y18.7094 
G01 X17.8310 Y18.6432 
G01 X17.7804 Y18.5926 
G01 X17.7142 Y18.5652 
G01 X15.4328 Y18.5652 
G01 X15.3666 Y18.5926 
G01 X15.3160 Y18.6432 
G01 X15.2886 Y18.7094 
G01 X15.2886 Y19.3906 
G01 X15.3160 Y19.4568 
G01 X15.3666 Y19.5074 
G01 X15.4328 Y19.5348 
G01 X17.7142 Y19.5348 
G01 X17.7804 Y19.5074 
G01 X17.8310 Y19.4568 
G01 X17.8584 Y19.3906 
G01 X17.8584 Y19.3824 
G01 X18.7623 Y19.3824 
G01 X18.7722 Y19.3844 
G01 X18.8060 Y19.3824 
G01 X18.8398 Y19.3824 
G01 X18.8495 Y19.3798 
G01 X18.8596 Y19.3792 
G01 X18.8917 Y19.3685 
G01 X18.9243 Y19.3597 
G01 X18.9330 Y19.3547 
G01 X18.9426 Y19.3515 
G01 X18.9708 Y19.3329 
G01 X19.0001 Y19.3160 
G01 X19.0072 Y19.3088 
G01 X19.0157 Y19.3033 
G01 X19.0381 Y19.2780 
G01 X19.0620 Y19.2541 
G01 X19.0670 Y19.2453 
G01 X19.0737 Y19.2378 
G01 X19.0889 Y19.2076 
G01 X19.1057 Y19.1783 
G01 X19.1084 Y19.1685 
G01 X19.5968 Y18.1916 
G01 X19.6137 Y18.1623 
G01 X19.6164 Y18.1526 
G01 X19.6209 Y18.1435 
G01 X19.6277 Y18.1104 
G01 X19.6364 Y18.0778 
G01 X19.6364 Y18.0677 
G01 X19.6384 Y18.0578 
G01 X19.6364 Y18.0240 
G01 X19.6364 Y8.9061  
G01 X19.6391 Y8.8787  
G01 X19.6364 Y8.8626  
G01 X19.6364 Y8.8462  
G01 X19.6292 Y8.8196  
G01 X19.6247 Y8.7923  
G01 X19.6180 Y8.7775  
G01 X19.6137 Y8.7617  
G01 X19.5999 Y8.7378  
G01 X18.8100 Y6.9995  
G01 X18.8057 Y6.9837  
G01 X18.7919 Y6.9598  
G01 X18.7805 Y6.9346  
G01 X18.7701 Y6.9220  
G01 X18.7620 Y6.9079  
G01 X18.7424 Y6.8884  
G01 X18.7249 Y6.8670  
G01 X18.7116 Y6.8576  
G01 X18.7001 Y6.8460  
G01 X18.6762 Y6.8322  
G01 X18.6537 Y6.8161  
G01 X18.6384 Y6.8104  
G01 X18.6243 Y6.8023  
G01 X18.5976 Y6.7951  
G01 X18.5718 Y6.7854  
G01 X18.5555 Y6.7838  
G01 X18.5398 Y6.7796  
G01 X18.5121 Y6.7796  
G01 X18.4847 Y6.7769  
G01 X18.4686 Y6.7796  
G01 X17.3067 Y6.7796  
G01 X17.2979 Y6.7777  
G01 X17.2631 Y6.7796  
G01 X17.2282 Y6.7796  
G01 X17.2195 Y6.7819  
G01 X17.2105 Y6.7824  
G01 X17.1773 Y6.7932  
G01 X17.1437 Y6.8023  
G01 X17.1359 Y6.8068  
G01 X17.1273 Y6.8096  
G01 X17.0981 Y6.8286  
G01 X17.0679 Y6.8460  
G01 X17.0615 Y6.8524  
G01 X17.0539 Y6.8574  
G01 X17.0307 Y6.8833  
G01 X17.0060 Y6.9079  
G01 X17.0015 Y6.9157  
G01 X15.3903 Y8.7100  
G01 X14.5692 Y8.7100  
G01 X14.5030 Y8.7374  
G01 X14.4524 Y8.7880  
G00 Z2.5400  
G00 X16.9924 Y8.7880  
G01 Z-0.1778 F254   
G01 X16.9650 Y8.8542  F508   
G01 X16.9650 Y11.4658 
G01 X16.9924 Y11.5320 
G01 X17.0430 Y11.5826 
G01 X17.1092 Y11.6100 
G01 X17.2139 Y11.6100 
G01 X16.3137 Y17.2952 
G01 X15.4328 Y17.2952 
G01 X15.3666 Y17.3226 
G01 X15.3160 Y17.3732 
G01 X15.2886 Y17.4394 
G01 X15.2886 Y18.1206 
G01 X15.3160 Y18.1868 
G01 X15.3666 Y18.2374 
G01 X15.4328 Y18.2648 
G01 X17.7142 Y18.2648 
G01 X17.7804 Y18.2374 
G01 X17.8310 Y18.1868 
G01 X17.8584 Y18.1206 
G01 X17.8584 Y17.4394 
G01 X17.8310 Y17.3732 
G01 X17.7804 Y17.3226 
G01 X17.7142 Y17.2952 
G01 X16.9868 Y17.2952 
G01 X17.8870 Y11.6100 
G01 X18.4508 Y11.6100 
G01 X18.5170 Y11.5826 
G01 X18.5676 Y11.5320 
G01 X18.5950 Y11.4658 
G01 X18.5950 Y8.8542  
G01 X18.5676 Y8.7880  
G01 X18.5170 Y8.7374  
G01 X18.4508 Y8.7100  
G01 X17.1092 Y8.7100  
G01 X17.0430 Y8.7374  
G01 X16.9924 Y8.7880  
G00 Z2.5400  
G00 X17.0430 Y6.1226  
G01 Z-0.1778 F254   
G01 X17.1092 Y6.1500  F508   
G01 X18.4508 Y6.1500  
G01 X18.5170 Y6.1226  
G01 X18.5676 Y6.0720  
G01 X18.5950 Y6.0058  
G01 X18.5950 Y5.0832  
G01 X29.3579 Y5.0832  
G01 X29.3116 Y13.0813 
G01 X26.8368 Y13.0977 
G01 X26.8368 Y12.5501 
G01 X26.8094 Y12.4839 
G01 X26.7588 Y12.4333 
G01 X26.6926 Y12.4059 
G01 X25.0210 Y12.4059 
G01 X24.9548 Y12.4333 
G01 X24.9042 Y12.4839 
G01 X24.8768 Y12.5501 
G01 X24.8768 Y14.4247 
G01 X24.9042 Y14.4909 
G01 X24.9548 Y14.5415 
G01 X25.0210 Y14.5689 
G01 X26.6926 Y14.5689 
G01 X26.7588 Y14.5415 
G01 X26.8094 Y14.4909 
G01 X26.8368 Y14.4247 
G01 X26.8368 Y13.8641 
G01 X29.3094 Y13.8477 
G01 X29.3094 Y23.6960 
G01 X26.9516 Y23.6960 
G01 X26.9516 Y23.4084 
G01 X26.9242 Y23.3422 
G01 X26.8736 Y23.2916 
G01 X26.8074 Y23.2642 
G01 X24.1958 Y23.2642 
G01 X24.1296 Y23.2916 
G01 X24.0790 Y23.3422 
G01 X24.0516 Y23.4084 
G01 X24.0516 Y24.7500 
G01 X24.0790 Y24.8162 
G01 X24.1296 Y24.8668 
G01 X24.1958 Y24.8942 
G01 X26.8074 Y24.8942 
G01 X26.8736 Y24.8668 
G01 X26.9242 Y24.8162 
G01 X26.9516 Y24.7500 
G01 X26.9516 Y24.4624 
G01 X29.3119 Y24.4624 
G01 X29.3577 Y31.3422 
G01 X18.1632 Y31.3660 
G01 X18.1632 Y30.2900 
G01 X18.4858 Y30.2900 
G01 X18.5520 Y30.2626 
G01 X18.6026 Y30.2120 
G01 X18.6300 Y30.1458 
G01 X18.6300 Y28.2742 
G01 X18.6026 Y28.2080 
G01 X18.5520 Y28.1574 
G01 X18.4858 Y28.1300 
G01 X16.8142 Y28.1300 
G01 X16.7480 Y28.1574 
G01 X16.6974 Y28.2080 
G01 X16.6700 Y28.2742 
G01 X16.6700 Y30.1458 
G01 X16.6974 Y30.2120 
G01 X16.7480 Y30.2626 
G01 X16.8142 Y30.2900 
G01 X17.3968 Y30.2900 
G01 X17.3968 Y31.3668 
G01 X11.6612 Y31.3668 
G01 X11.6612 Y30.2915 
G01 X12.1138 Y30.2915 
G01 X12.1800 Y30.2641 
G01 X12.2306 Y30.2135 
G01 X12.2580 Y30.1473 
G01 X12.2580 Y28.2727 
G01 X12.2306 Y28.2065 
G01 X12.1800 Y28.1559 
G01 X12.1138 Y28.1285 
G01 X11.6612 Y28.1285 
G01 X11.6612 Y25.8848 
G01 X12.5072 Y25.8848 
G01 X12.5734 Y25.8574 
G01 X12.6240 Y25.8068 
G01 X12.6514 Y25.7406 
G01 X12.6514 Y25.0594 
G01 X12.6240 Y24.9932 
G01 X12.5734 Y24.9426 
G01 X12.5072 Y24.9152 
G01 X10.2258 Y24.9152 
G01 X10.1596 Y24.9426 
G01 X10.1090 Y24.9932 
G01 X10.0816 Y25.0594 
G01 X10.0816 Y25.7406 
G01 X10.1090 Y25.8068 
G01 X10.1596 Y25.8574 
G01 X10.2258 Y25.8848 
G01 X10.8948 Y25.8848 
G01 X10.8948 Y28.1285 
G01 X10.4422 Y28.1285 
G01 X10.3760 Y28.1559 
G01 X10.3254 Y28.2065 
G01 X10.2980 Y28.2727 
G01 X10.2980 Y30.1473 
G01 X10.3254 Y30.2135 
G01 X10.3760 Y30.2641 
G01 X10.4422 Y30.2915 
G01 X10.8948 Y30.2915 
G01 X10.8948 Y31.8005 
G01 X10.9209 Y31.8979 
G01 X10.9714 Y31.9853 
G01 X11.0427 Y32.0566 
G01 X11.1301 Y32.1071 
G01 X11.2275 Y32.1332 
G01 X17.7300 Y32.1332 
G01 X17.7802 Y32.1332 
G01 X17.8304 Y32.1332 
G01 X29.6946 Y32.1079 
G01 X29.7456 Y32.1078 
G01 X29.7947 Y32.1077 
G01 X29.8441 Y32.0943 
G01 X29.8921 Y32.0814 
G01 X29.9363 Y32.0557 
G01 X29.9793 Y32.0307 
G01 X30.0157 Y31.9942 
G01 X30.0505 Y31.9592 
G01 X30.0761 Y31.9148 
G01 X30.1008 Y31.8717 
G01 X30.1140 Y31.8222 
G01 X30.1267 Y31.7742 
G01 X30.1266 Y31.7224 
G01 X30.1265 Y31.6733 
G01 X30.0758 Y24.0780 
G01 X30.0758 Y13.5112 
G01 X30.0758 Y13.4618 
G01 X30.1241 Y5.1347  
G01 X30.1243 Y5.0839  
G01 X30.1246 Y5.0349  
G01 X30.1243 Y4.6495  
G01 X30.0982 Y4.5521  
G01 X30.0478 Y4.4647  
G01 X29.9764 Y4.3934  
G01 X29.8891 Y4.3429  
G01 X29.7916 Y4.3168  
G01 X18.5950 Y4.3168  
G01 X18.5950 Y3.3942  
G01 X18.5676 Y3.3280  
G01 X18.5170 Y3.2774  
G01 X18.4508 Y3.2500  
G01 X17.1092 Y3.2500  
G01 X17.0430 Y3.2774  
G01 X16.9924 Y3.3280  
G01 X16.9650 Y3.3942  
G01 X16.9650 Y6.0058  
G01 X16.9924 Y6.0720  
G01 X17.0430 Y6.1226  
G00 Z2.5400  
G00 X19.6828 Y6.0856  
G01 Z-0.1778 F254   
G01 X19.6828 Y7.6812  F508   
G01 X19.7102 Y7.7474  
G01 X19.7608 Y7.7980  
G01 X19.8270 Y7.8254  
G01 X20.2162 Y7.8254  
G01 X20.2162 Y19.9876 
G01 X17.8584 Y19.9876 
G01 X17.8584 Y19.9794 
G01 X17.8310 Y19.9132 
G01 X17.7804 Y19.8626 
G01 X17.7142 Y19.8352 
G01 X15.4328 Y19.8352 
G01 X15.3666 Y19.8626 
G01 X15.3160 Y19.9132 
G01 X15.2886 Y19.9794 
G01 X15.2886 Y20.6606 
G01 X15.3160 Y20.7268 
G01 X15.3666 Y20.7774 
G01 X15.4328 Y20.8048 
G01 X17.7142 Y20.8048 
G01 X17.7804 Y20.7774 
G01 X17.8310 Y20.7268 
G01 X17.8584 Y20.6606 
G01 X17.8584 Y20.6524 
G01 X20.5924 Y20.6524 
G01 X20.6769 Y20.6297 
G01 X20.7527 Y20.5860 
G01 X20.8146 Y20.5241 
G01 X20.8583 Y20.4483 
G01 X20.8810 Y20.3638 
G01 X20.8810 Y13.8198 
G01 X22.0328 Y13.8198 
G01 X22.0328 Y14.4247 
G01 X22.0602 Y14.4909 
G01 X22.1108 Y14.5415 
G01 X22.1770 Y14.5689 
G01 X23.8486 Y14.5689 
G01 X23.9148 Y14.5415 
G01 X23.9654 Y14.4909 
G01 X23.9928 Y14.4247 
G01 X23.9928 Y12.5501 
G01 X23.9654 Y12.4839 
G01 X23.9148 Y12.4333 
G01 X23.8486 Y12.4059 
G01 X22.1770 Y12.4059 
G01 X22.1108 Y12.4333 
G01 X22.0602 Y12.4839 
G01 X22.0328 Y12.5501 
G01 X22.0328 Y13.1550 
G01 X20.8810 Y13.1550 
G01 X20.8810 Y7.8254  
G01 X22.1846 Y7.8254  
G01 X22.2508 Y7.7980  
G01 X22.3014 Y7.7474  
G01 X22.3288 Y7.6812  
G01 X22.3288 Y7.2158  
G01 X26.2868 Y7.2158  
G01 X26.2868 Y7.6812  
G01 X26.3142 Y7.7474  
G01 X26.3648 Y7.7980  
G01 X26.4310 Y7.8254  
G01 X28.7886 Y7.8254  
G01 X28.8548 Y7.7980  
G01 X28.9054 Y7.7474  
G01 X28.9328 Y7.6812  
G01 X28.9328 Y6.0856  
G01 X28.9054 Y6.0194  
G01 X28.8548 Y5.9688  
G01 X28.7886 Y5.9414  
G01 X26.4310 Y5.9414  
G01 X26.3648 Y5.9688  
G01 X26.3142 Y6.0194  
G01 X26.2868 Y6.0856  
G01 X26.2868 Y6.5510  
G01 X22.3288 Y6.5510  
G01 X22.3288 Y6.0856  
G01 X22.3014 Y6.0194  
G01 X22.2508 Y5.9688  
G01 X22.1846 Y5.9414  
G01 X19.8270 Y5.9414  
G01 X19.7608 Y5.9688  
G01 X19.7102 Y6.0194  
G01 X19.6828 Y6.0856  
G00 Z2.5400  
G00 X24.0790 Y15.7222 
G01 Z-0.1778 F254   
G01 X24.0516 Y15.7884 F508   
G01 X24.0516 Y17.1300 
G01 X24.0790 Y17.1962 
G01 X24.1296 Y17.2468 
G01 X24.1958 Y17.2742 
G01 X26.8074 Y17.2742 
G01 X26.8736 Y17.2468 
G01 X26.9242 Y17.1962 
G01 X26.9516 Y17.1300 
G01 X26.9516 Y15.7884 
G01 X26.9242 Y15.7222 
G01 X26.8736 Y15.6716 
G01 X26.8074 Y15.6442 
G01 X24.1958 Y15.6442 
G01 X24.1296 Y15.6716 
G01 X24.0790 Y15.7222 
G00 Z2.5400  
G00 X24.0790 Y18.2622 
G01 Z-0.1778 F254   
G01 X24.0516 Y18.3284 F508   
G01 X24.0516 Y19.2509 
G01 X21.4302 Y22.5276 
G01 X17.8584 Y22.5276 
G01 X17.8584 Y22.5194 
G01 X17.8310 Y22.4532 
G01 X17.7804 Y22.4026 
G01 X17.7142 Y22.3752 
G01 X15.4328 Y22.3752 
G01 X15.3666 Y22.4026 
G01 X15.3160 Y22.4532 
G01 X15.2886 Y22.5194 
G01 X15.2886 Y23.2006 
G01 X15.3160 Y23.2668 
G01 X15.3666 Y23.3174 
G01 X15.4328 Y23.3448 
G01 X17.7142 Y23.3448 
G01 X17.7804 Y23.3174 
G01 X17.8310 Y23.2668 
G01 X17.8584 Y23.2006 
G01 X17.8584 Y23.1924 
G01 X21.5648 Y23.1924 
G01 X21.5832 Y23.1952 
G01 X21.6084 Y23.1924 
G01 X21.6338 Y23.1924 
G01 X21.6517 Y23.1876 
G01 X21.6702 Y23.1855 
G01 X21.6938 Y23.1763 
G01 X21.7183 Y23.1697 
G01 X21.7344 Y23.1604 
G01 X21.7517 Y23.1537 
G01 X21.7721 Y23.1387 
G01 X21.7941 Y23.1260 
G01 X21.8072 Y23.1128 
G01 X21.8222 Y23.1018 
G01 X21.8381 Y23.0820 
G01 X21.8560 Y23.0641 
G01 X21.8653 Y23.0480 
G01 X24.4523 Y19.8142 
G01 X26.8074 Y19.8142 
G01 X26.8736 Y19.7868 
G01 X26.9242 Y19.7362 
G01 X26.9516 Y19.6700 
G01 X26.9516 Y18.3284 
G01 X26.9242 Y18.2622 
G01 X26.8736 Y18.2116 
G01 X26.8074 Y18.1842 
G01 X24.1958 Y18.1842 
G01 X24.1296 Y18.2116 
G01 X24.0790 Y18.2622 
G00 Z2.5400  
G00 X24.0790 Y20.8022 
G01 Z-0.1778 F254   
G01 X24.0516 Y20.8684 F508   
G01 X24.0516 Y22.2100 
G01 X24.0790 Y22.2762 
G01 X24.1264 Y22.3236 
G01 X22.4790 Y23.7976 
G01 X17.8584 Y23.7976 
G01 X17.8584 Y23.7894 
G01 X17.8310 Y23.7232 
G01 X17.7804 Y23.6726 
G01 X17.7142 Y23.6452 
G01 X15.4328 Y23.6452 
G01 X15.3666 Y23.6726 
G01 X15.3160 Y23.7232 
G01 X15.2886 Y23.7894 
G01 X15.2886 Y24.4706 
G01 X15.3160 Y24.5368 
G01 X15.3666 Y24.5874 
G01 X15.4328 Y24.6148 
G01 X17.7142 Y24.6148 
G01 X17.7804 Y24.5874 
G01 X17.8310 Y24.5368 
G01 X17.8584 Y24.4706 
G01 X17.8584 Y24.4624 
G01 X22.5968 Y24.4624 
G01 X22.6313 Y24.4643 
G01 X22.6404 Y24.4624 
G01 X22.6498 Y24.4624 
G01 X22.6831 Y24.4535 
G01 X22.7169 Y24.4464 
G01 X22.7253 Y24.4422 
G01 X22.7343 Y24.4397 
G01 X22.7642 Y24.4225 
G01 X22.7950 Y24.4069 
G01 X22.8020 Y24.4007 
G01 X22.8101 Y24.3960 
G01 X22.8345 Y24.3716 
G01 X25.0892 Y22.3542 
G01 X26.8074 Y22.3542 
G01 X26.8736 Y22.3268 
G01 X26.9242 Y22.2762 
G01 X26.9516 Y22.2100 
G01 X26.9516 Y20.8684 
G01 X26.9242 Y20.8022 
G01 X26.8736 Y20.7516 
G01 X26.8074 Y20.7242 
G01 X24.1958 Y20.7242 
G01 X24.1296 Y20.7516 
G01 X24.0790 Y20.8022 
G00 Z2.5400  
G00 X24.0790 Y25.8822 
G01 Z-0.1778 F254   
G01 X24.0516 Y25.9484 F508   
G01 X24.0516 Y27.2900 
G01 X24.0790 Y27.3562 
G01 X24.1296 Y27.4068 
G01 X24.1958 Y27.4342 
G01 X26.8074 Y27.4342 
G01 X26.8736 Y27.4068 
G01 X26.9242 Y27.3562 
G01 X26.9516 Y27.2900 
G01 X26.9516 Y25.9484 
G01 X26.9242 Y25.8822 
G01 X26.8736 Y25.8316 
G01 X26.8074 Y25.8042 
G01 X24.1958 Y25.8042 
G01 X24.1296 Y25.8316 
G01 X24.0790 Y25.8822 
G00 Z2.5400  
G00 X17.8310 Y21.9968 
G01 Z-0.1778 F254   
G01 X17.8584 Y21.9306 F508   
G01 X17.8584 Y21.2494 
G01 X17.8310 Y21.1832 
G01 X17.7804 Y21.1326 
G01 X17.7142 Y21.1052 
G01 X15.4328 Y21.1052 
G01 X15.3666 Y21.1326 
G01 X15.3160 Y21.1832 
G01 X15.2886 Y21.2494 
G01 X15.2886 Y21.9306 
G01 X15.3160 Y21.9968 
G01 X15.3666 Y22.0474 
G01 X15.4328 Y22.0748 
G01 X17.7142 Y22.0748 
G01 X17.7804 Y22.0474 
G01 X17.8310 Y21.9968 
G00 Z2.5400  
G00 X12.5734 Y22.4026 
G01 Z-0.1778 F254   
G01 X12.5072 Y22.3752 F508   
G01 X10.2258 Y22.3752 
G01 X10.1596 Y22.4026 
G01 X10.1090 Y22.4532 
G01 X10.0816 Y22.5194 
G01 X10.0816 Y22.6303 
G01 X9.4552  Y22.6337 
G01 X9.2100  Y22.6213 
G01 X9.2100  Y22.2442 
G01 X9.1826  Y22.1780 
G01 X9.1320  Y22.1274 
G01 X9.0658  Y22.1000 
G01 X5.0942  Y22.1000 
G01 X5.0280  Y22.1274 
G01 X4.9774  Y22.1780 
G01 X4.9500  Y22.2442 
G01 X4.9500  Y22.7151 
G01 X4.9423  Y22.7248 
G01 X4.9097  Y22.7988 
G01 X4.8974  Y22.8787 
G01 X4.9062  Y22.9590 
G01 X4.9355  Y23.0344 
G01 X4.9500  Y23.0541 
G01 X4.9500  Y23.1158 
G01 X4.9774  Y23.1820 
G01 X5.0280  Y23.2326 
G01 X5.0942  Y23.2600 
G01 X8.6658  Y23.2600 
G01 X8.7398  Y23.2679 
G01 X9.4401  Y23.3032 
G01 X10.1413 Y23.2994 
G01 X10.1596 Y23.3174 
G01 X10.2258 Y23.3448 
G01 X12.5072 Y23.3448 
G01 X12.5734 Y23.3174 
G01 X12.6240 Y23.2668 
G01 X12.6514 Y23.2006 
G01 X12.6514 Y22.5194 
G01 X12.6240 Y22.4532 
G01 X12.5734 Y22.4026 
G00 Z2.5400  
G00 X12.5734 Y20.7774 
G01 Z-0.1778 F254   
G01 X12.6240 Y20.7268 F508   
G01 X12.6514 Y20.6606 
G01 X12.6514 Y19.9794 
G01 X12.6240 Y19.9132 
G01 X12.5734 Y19.8626 
G01 X12.5072 Y19.8352 
G01 X10.2258 Y19.8352 
G01 X10.1596 Y19.8626 
G01 X10.1090 Y19.9132 
G01 X10.0816 Y19.9794 
G01 X10.0816 Y20.6606 
G01 X10.1090 Y20.7268 
G01 X10.1596 Y20.7774 
G01 X10.2258 Y20.8048 
G01 X12.5072 Y20.8048 
G01 X12.5734 Y20.7774 
G00 Z2.5400  
G00 X12.5734 Y19.5074 
G01 Z-0.1778 F254   
G01 X12.6240 Y19.4568 F508   
G01 X12.6514 Y19.3906 
G01 X12.6514 Y18.7094 
G01 X12.6240 Y18.6432 
G01 X12.5734 Y18.5926 
G01 X12.5072 Y18.5652 
G01 X10.2258 Y18.5652 
G01 X10.1596 Y18.5926 
G01 X10.1090 Y18.6432 
G01 X10.0816 Y18.7094 
G01 X10.0816 Y18.7401 
G01 X7.7715  Y18.7806 
G01 X7.7715  Y18.2962 
G01 X7.7441  Y18.2300 
G01 X7.6935  Y18.1794 
G01 X7.6273  Y18.1520 
G01 X5.7527  Y18.1520 
G01 X5.6865  Y18.1794 
G01 X5.6359  Y18.2300 
G01 X5.6085  Y18.2962 
G01 X5.6085  Y19.9678 
G01 X5.6359  Y20.0340 
G01 X5.6865  Y20.0846 
G01 X5.7527  Y20.1120 
G01 X7.6273  Y20.1120 
G01 X7.6935  Y20.0846 
G01 X7.7441  Y20.0340 
G01 X7.7715  Y19.9678 
G01 X7.7715  Y19.4455 
G01 X10.0875 Y19.4049 
G01 X10.1090 Y19.4568 
G01 X10.1596 Y19.5074 
G01 X10.2258 Y19.5348 
G01 X12.5072 Y19.5348 
G01 X12.5734 Y19.5074 
G00 Z2.5400  
G00 X9.2246  Y30.4855 
G01 Z-0.1778 F254   
G01 X9.1430  Y30.4384 F508   
G01 X9.0520  Y30.4140 
G01 X8.9578  Y30.4140 
G01 X8.8668  Y30.4384 
G01 X8.7852  Y30.4855 
G01 X8.7186  Y30.5521 
G01 X8.6715  Y30.6337 
G01 X8.6471  Y30.7247 
G01 X8.6471  Y31.5896 
G01 X8.5347  Y31.7020 
G01 X8.0747  Y31.7020 
G01 X8.0747  Y30.7247 
G01 X8.0503  Y30.6337 
G01 X8.0032  Y30.5521 
G01 X7.9366  Y30.4855 
G01 X7.8550  Y30.4384 
G01 X7.7640  Y30.4140 
G01 X7.6698  Y30.4140 
G01 X7.5788  Y30.4384 
G01 X7.4972  Y30.4855 
G01 X7.4306  Y30.5521 
G01 X7.3835  Y30.6337 
G01 X7.3591  Y30.7247 
G01 X7.3591  Y32.0127 
G01 X7.3591  Y32.1069 
G01 X7.3835  Y32.1979 
G01 X7.4306  Y32.2795 
G01 X7.4972  Y32.3461 
G01 X7.5788  Y32.3932 
G01 X7.6698  Y32.4176 
G01 X8.7300  Y32.4176 
G01 X8.8210  Y32.3932 
G01 X8.9026  Y32.3461 
G01 X9.2246  Y32.0241 
G01 X9.2912  Y31.9575 
G01 X9.3383  Y31.8759 
G01 X9.3627  Y31.7849 
G01 X9.3627  Y30.7247 
G01 X9.3383  Y30.6337 
G01 X9.2912  Y30.5521 
G01 X9.2246  Y30.4855 
G00 Z2.5400  
G00 X7.1773  Y30.4855 
G01 Z-0.1778 F254   
G01 X7.0957  Y30.4384 F508   
G01 X7.0047  Y30.4140 
G01 X6.2665  Y30.4140 
G01 X6.1755  Y30.4384 
G01 X6.0939  Y30.4855 
G01 X6.0273  Y30.5521 
G01 X5.9802  Y30.6337 
G01 X5.9558  Y30.7247 
G01 X5.9558  Y30.8189 
G01 X5.9802  Y30.9099 
G01 X6.0273  Y30.9915 
G01 X6.0939  Y31.0581 
G01 X6.1755  Y31.1052 
G01 X6.2665  Y31.1296 
G01 X6.2778  Y31.1296 
G01 X6.2778  Y31.7020 
G01 X6.2665  Y31.7020 
G01 X6.1755  Y31.7264 
G01 X6.0939  Y31.7735 
G01 X6.0273  Y31.8401 
G01 X5.9802  Y31.9217 
G01 X5.9558  Y32.0127 
G01 X5.9558  Y32.1069 
G01 X5.9802  Y32.1979 
G01 X6.0273  Y32.2795 
G01 X6.0939  Y32.3461 
G01 X6.1755  Y32.3932 
G01 X6.2665  Y32.4176 
G01 X6.4158  Y32.4176 
G01 X6.3493  Y32.4842 
G01 X6.3022  Y32.5657 
G01 X6.2778  Y32.6567 
G01 X6.2778  Y33.0730 
G01 X6.3022  Y33.1640 
G01 X6.3493  Y33.2456 
G01 X6.4159  Y33.3122 
G01 X6.4975  Y33.3593 
G01 X6.5885  Y33.3837 
G01 X6.6827  Y33.3837 
G01 X6.7737  Y33.3593 
G01 X6.8553  Y33.3122 
G01 X6.9219  Y33.2456 
G01 X6.9690  Y33.1640 
G01 X6.9934  Y33.0730 
G01 X6.9934  Y32.6567 
G01 X6.9690  Y32.5657 
G01 X6.9219  Y32.4842 
G01 X6.8553  Y32.4175 
G01 X6.7935  Y32.3818 
G01 X6.8553  Y32.3461 
G01 X6.9219  Y32.2795 
G01 X6.9690  Y32.1979 
G01 X6.9934  Y32.1069 
G01 X6.9934  Y31.1296 
G01 X7.0047  Y31.1296 
G01 X7.0957  Y31.1052 
G01 X7.1773  Y31.0581 
G01 X7.2439  Y30.9915 
G01 X7.2910  Y30.9099 
G01 X7.3154  Y30.8189 
G01 X7.3154  Y30.7247 
G01 X7.2910  Y30.6337 
G01 X7.2439  Y30.5521 
G01 X7.1773  Y30.4855 
G00 Z2.5400  
G00 X5.7164  Y30.4855 
G01 Z-0.1778 F254   
G01 X5.6348  Y30.4384 F508   
G01 X5.5438  Y30.4140 
G01 X5.4496  Y30.4140 
G01 X5.3586  Y30.4384 
G01 X5.2770  Y30.4855 
G01 X5.2104  Y30.5521 
G01 X5.1633  Y30.6337 
G01 X5.1389  Y30.7247 
G01 X5.1389  Y31.5896 
G01 X5.0265  Y31.7020 
G01 X4.6789  Y31.7020 
G01 X4.5665  Y31.5896 
G01 X4.5665  Y30.7247 
G01 X4.5421  Y30.6337 
G01 X4.4950  Y30.5521 
G01 X4.4284  Y30.4855 
G01 X4.3468  Y30.4384 
G01 X4.2558  Y30.4140 
G01 X4.1616  Y30.4140 
G01 X4.0706  Y30.4384 
G01 X3.9890  Y30.4855 
G01 X3.9224  Y30.5521 
G01 X3.8753  Y30.6337 
G01 X3.8509  Y30.7247 
G01 X3.8509  Y32.7510 
G01 X3.8753  Y32.8420 
G01 X3.9224  Y32.9235 
G01 X3.9890  Y32.9902 
G01 X4.0706  Y33.0373 
G01 X4.1616  Y33.0616 
G01 X4.2558  Y33.0616 
G01 X4.3468  Y33.0373 
G01 X4.4284  Y32.9902 
G01 X4.4950  Y32.9235 
G01 X4.5421  Y32.8420 
G01 X4.5665  Y32.7510 
G01 X4.5665  Y32.4176 
G01 X5.2218  Y32.4176 
G01 X5.3128  Y32.3932 
G01 X5.3944  Y32.3461 
G01 X5.7164  Y32.0241 
G01 X5.7830  Y31.9575 
G01 X5.8301  Y31.8759 
G01 X5.8545  Y31.7849 
G01 X5.8545  Y30.7247 
G01 X5.8301  Y30.6337 
G01 X5.7830  Y30.5521 
G01 X5.7164  Y30.4855 
G00 Z2.5400  
G00 X3.6115  Y30.4855 
G01 Z-0.1778 F254   
G01 X3.5299  Y30.4384 F508   
G01 X3.4389  Y30.4140 
G01 X2.3787  Y30.4140 
G01 X2.2877  Y30.4384 
G01 X2.2061  Y30.4855 
G01 X2.1395  Y30.5521 
G01 X1.8175  Y30.8741 
G01 X1.7704  Y30.9557 
G01 X1.7460  Y31.0467 
G01 X1.7460  Y31.7849 
G01 X1.7704  Y31.8759 
G01 X1.8175  Y31.9575 
G01 X1.8841  Y32.0241 
G01 X2.2061  Y32.3461 
G01 X2.2877  Y32.3932 
G01 X2.3787  Y32.4176 
G01 X3.4389  Y32.4176 
G01 X3.5299  Y32.3932 
G01 X3.6115  Y32.3461 
G01 X3.6781  Y32.2795 
G01 X3.7252  Y32.1979 
G01 X3.7496  Y32.1069 
G01 X3.7496  Y32.0127 
G01 X3.7252  Y31.9217 
G01 X3.6781  Y31.8401 
G01 X3.6115  Y31.7735 
G01 X3.5299  Y31.7264 
G01 X3.4389  Y31.7020 
G01 X2.5740  Y31.7020 
G01 X2.4616  Y31.5896 
G01 X2.4616  Y31.2420 
G01 X2.5740  Y31.1296 
G01 X3.4389  Y31.1296 
G01 X3.5299  Y31.1052 
G01 X3.6115  Y31.0581 
G01 X3.6781  Y30.9915 
G01 X3.7252  Y30.9099 
G01 X3.7496  Y30.8189 
G01 X3.7496  Y30.7247 
G01 X3.7252  Y30.6337 
G01 X3.6781  Y30.5521 
G01 X3.6115  Y30.4855 
G00 Z2.5400  
G00 X32.0734 Y33.5667 
G01 Z-0.1778 F254   
G01 X32.0734 Y34.4034 F508   
G01 X31.2367 Y34.4034 
G01 X32.0734 Y33.5667 
G00 Z2.5400  
G00 X32.0734 Y0.9333  
G01 Z-0.1778 F254   
G01 X31.2367 Y0.0966  F508   
G01 X32.0734 Y0.0966  
G01 X32.0734 Y0.9333  
G00 Z2.5400  
G00 Z12.7000 
M05
M02
