(.../eagle/ulp/pcb_gcode/pcb-gcode.ulp)
(Copyright 2005 - 2012 by John Johnson)
(See readme.txt for licensing terms.)
(This file generated from the board:)
(.../final project/Stepper.brd)
(Current profile is .../ulp/pcb_gcode/profiles/mach.pp  )
(This file generated 9/6/2016 8:37:38 AM)
(Settings from pcb-machine.h)
(spindle on time = 3.0000)
(  Tool Size)
(0.1200  )
(spindle speed = 30000.0000)
(tool change at 0.0000  0.0000  25.4000 )
(feed rate xy = F508   )
(feed rate z  = F254   )
(Z Axis Settings)
(  High     Up        Down     Drill)
(12.7000 	2.5400  	-0.1778 	-0.8128 )
(Settings from pcb-defaults.h)
(isolate min = 0.1200)
(isolate max = 0.5080)
(isolate step = 0.1270)
(Generated top outlines, )
(Unit of measure: mm)
(Metric Mode)
G21
(Absolute Coordinates)
G90
S30000
G00 Z12.7000 
G00 X0.0000  Y0.0000  
M03
G04 P3.000000
G00 Z2.5400  
G00 X0.8912  Y0.7642  
G01 Z-0.1778 F254   
G01 X52.9568 Y0.7642  F508   
G01 X52.9568 Y38.9868 
G01 X0.8912  Y38.9868 
G01 X0.8912  Y0.7642  
G00 Z2.5400  
G00 X6.5295  Y3.4362  
G01 Z-0.1778 F254   
G01 X6.4653  Y3.5322  F508   
G01 X6.4211  Y3.6389  
G01 X6.3986  Y3.7522  
G01 X6.3986  Y5.1540  
G01 X6.3142  Y5.1540  
G01 X6.2480  Y5.1814  
G01 X6.1974  Y5.2320  
G01 X6.1700  Y5.2982  
G01 X6.1700  Y7.9098  
G01 X6.1974  Y7.9760  
G01 X6.2480  Y8.0266  
G01 X6.3142  Y8.0540  
G01 X6.3986  Y8.0540  
G01 X6.3986  Y10.6140 
G01 X6.3142  Y10.6140 
G01 X6.2480  Y10.6414 
G01 X6.1974  Y10.6920 
G01 X6.1700  Y10.7582 
G01 X6.1700  Y13.3698 
G01 X6.1974  Y13.4360 
G01 X6.2480  Y13.4866 
G01 X6.3142  Y13.5140 
G01 X6.3986  Y13.5140 
G01 X6.3986  Y18.5490 
G01 X6.4211  Y18.6622 
G01 X6.4240  Y18.6692 
G01 X6.4240  Y19.6446 
G01 X6.4514  Y19.7108 
G01 X6.5020  Y19.7614 
G01 X6.5682  Y19.7888 
G01 X7.8590  Y19.7888 
G01 X7.9252  Y19.7614 
G01 X7.9758  Y19.7108 
G01 X8.0032  Y19.6446 
G01 X8.0032  Y17.3378 
G01 X7.9758  Y17.2716 
G01 X7.9252  Y17.2210 
G01 X7.8590  Y17.1936 
G01 X7.5714  Y17.1936 
G01 X7.5714  Y13.5140 
G01 X7.6558  Y13.5140 
G01 X7.7220  Y13.4866 
G01 X7.7726  Y13.4360 
G01 X7.8000  Y13.3698 
G01 X7.8000  Y10.7582 
G01 X7.7726  Y10.6920 
G01 X7.7220  Y10.6414 
G01 X7.6558  Y10.6140 
G01 X7.5714  Y10.6140 
G01 X7.5714  Y8.0540  
G01 X7.6558  Y8.0540  
G01 X7.7220  Y8.0266  
G01 X7.7726  Y7.9760  
G01 X7.8000  Y7.9098  
G01 X7.8000  Y5.2982  
G01 X7.7726  Y5.2320  
G01 X7.7220  Y5.1814  
G01 X7.6558  Y5.1540  
G01 X7.5714  Y5.1540  
G01 X7.5714  Y4.3964  
G01 X45.2352 Y4.3964  
G01 X45.2352 Y6.6018  
G01 X43.3600 Y6.6018  
G01 X43.3600 Y5.9967  
G01 X43.3326 Y5.9305  
G01 X43.2820 Y5.8799  
G01 X43.2158 Y5.8525  
G01 X41.8742 Y5.8525  
G01 X41.8080 Y5.8799  
G01 X41.7574 Y5.9305  
G01 X41.7300 Y5.9967  
G01 X41.7300 Y7.9733  
G01 X41.7574 Y8.0395  
G01 X41.8080 Y8.0901  
G01 X41.8742 Y8.1175  
G01 X43.2158 Y8.1175  
G01 X43.2820 Y8.0901  
G01 X43.3326 Y8.0395  
G01 X43.3600 Y7.9733  
G01 X43.3600 Y7.3682  
G01 X45.2352 Y7.3682  
G01 X45.2352 Y9.3958  
G01 X43.3600 Y9.3958  
G01 X43.3600 Y8.7907  
G01 X43.3326 Y8.7245  
G01 X43.2820 Y8.6739  
G01 X43.2158 Y8.6465  
G01 X41.8742 Y8.6465  
G01 X41.8080 Y8.6739  
G01 X41.7574 Y8.7245  
G01 X41.7300 Y8.7907  
G01 X41.7300 Y10.7673 
G01 X41.7574 Y10.8335 
G01 X41.8080 Y10.8841 
G01 X41.8742 Y10.9115 
G01 X43.2158 Y10.9115 
G01 X43.2820 Y10.8841 
G01 X43.3326 Y10.8335 
G01 X43.3600 Y10.7673 
G01 X43.3600 Y10.1622 
G01 X45.2352 Y10.1622 
G01 X45.2352 Y14.1202 
G01 X38.7772 Y14.1202 
G01 X38.6539 Y14.1532 
G01 X38.6162 Y14.1750 
G01 X37.7052 Y14.1750 
G01 X37.6390 Y14.2024 
G01 X37.5884 Y14.2530 
G01 X37.5610 Y14.3192 
G01 X37.5610 Y14.8908 
G01 X37.5884 Y14.9570 
G01 X37.6390 Y15.0076 
G01 X37.7052 Y15.0350 
G01 X38.6162 Y15.0350 
G01 X38.6539 Y15.0568 
G01 X38.7772 Y15.0898 
G01 X45.2860 Y15.0898 
G01 X45.2860 Y24.7628 
G01 X43.3600 Y24.7628 
G01 X43.3600 Y24.1577 
G01 X43.3326 Y24.0915 
G01 X43.2820 Y24.0409 
G01 X43.2158 Y24.0135 
G01 X41.8742 Y24.0135 
G01 X41.8080 Y24.0409 
G01 X41.7574 Y24.0915 
G01 X41.7300 Y24.1577 
G01 X41.7300 Y26.1343 
G01 X41.7574 Y26.2005 
G01 X41.8080 Y26.2511 
G01 X41.8742 Y26.2785 
G01 X43.2158 Y26.2785 
G01 X43.2820 Y26.2511 
G01 X43.3326 Y26.2005 
G01 X43.3600 Y26.1343 
G01 X43.3600 Y25.5292 
G01 X45.2860 Y25.5292 
G01 X45.2860 Y27.5568 
G01 X43.3600 Y27.5568 
G01 X43.3600 Y26.9517 
G01 X43.3326 Y26.8855 
G01 X43.2820 Y26.8349 
G01 X43.2158 Y26.8075 
G01 X41.8742 Y26.8075 
G01 X41.8080 Y26.8349 
G01 X41.7574 Y26.8855 
G01 X41.7300 Y26.9517 
G01 X41.7300 Y28.9283 
G01 X41.7574 Y28.9945 
G01 X41.8080 Y29.0451 
G01 X41.8742 Y29.0725 
G01 X43.2158 Y29.0725 
G01 X43.2820 Y29.0451 
G01 X43.3326 Y28.9945 
G01 X43.3600 Y28.9283 
G01 X43.3600 Y28.3232 
G01 X45.2860 Y28.3232 
G01 X45.2860 Y30.6302 
G01 X38.9042 Y30.6302 
G01 X38.7809 Y30.6632 
G01 X38.7432 Y30.6850 
G01 X37.8322 Y30.6850 
G01 X37.7660 Y30.7124 
G01 X37.7154 Y30.7630 
G01 X37.6880 Y30.8292 
G01 X37.6880 Y31.4008 
G01 X37.7154 Y31.4670 
G01 X37.7660 Y31.5176 
G01 X37.8322 Y31.5450 
G01 X38.7432 Y31.5450 
G01 X38.7809 Y31.5668 
G01 X38.9042 Y31.5998 
G01 X45.7838 Y31.5998 
G01 X45.9071 Y31.5668 
G01 X46.0177 Y31.5029 
G01 X46.1079 Y31.4127 
G01 X46.1718 Y31.3021 
G01 X46.2048 Y31.1788 
G01 X46.2048 Y31.0512 
G01 X46.1718 Y30.9279 
G01 X46.1540 Y30.8971 
G01 X46.1540 Y14.8229 
G01 X46.1718 Y14.7921 
G01 X46.2048 Y14.6688 
G01 X46.2048 Y4.1399  
G01 X46.2397 Y4.0878  
G01 X46.2839 Y3.9810  
G01 X46.3064 Y3.8678  
G01 X46.3064 Y3.7522  
G01 X46.2839 Y3.6389  
G01 X46.2397 Y3.5322  
G01 X46.1755 Y3.4362  
G01 X46.0938 Y3.3545  
G01 X45.9978 Y3.2903  
G01 X45.8910 Y3.2461  
G01 X45.7778 Y3.2236  
G01 X6.9272  Y3.2236  
G01 X6.8140  Y3.2461  
G01 X6.7072  Y3.2903  
G01 X6.6112  Y3.3545  
G01 X6.5295  Y3.4362  
G00 Z2.5400  
G00 X8.7374  Y5.2320  
G01 Z-0.1778 F254   
G01 X8.7100  Y5.2982  F508   
G01 X8.7100  Y7.9098  
G01 X8.7374  Y7.9760  
G01 X8.7880  Y8.0266  
G01 X8.8542  Y8.0540  
G01 X8.9386  Y8.0540  
G01 X8.9386  Y10.6140 
G01 X8.8542  Y10.6140 
G01 X8.7880  Y10.6414 
G01 X8.7374  Y10.6920 
G01 X8.7100  Y10.7582 
G01 X8.7100  Y13.3698 
G01 X8.7374  Y13.4360 
G01 X8.7880  Y13.4866 
G01 X8.8542  Y13.5140 
G01 X8.9386  Y13.5140 
G01 X8.9386  Y17.1936 
G01 X8.8796  Y17.1936 
G01 X8.8134  Y17.2210 
G01 X8.7628  Y17.2716 
G01 X8.7354  Y17.3378 
G01 X8.7354  Y19.6446 
G01 X8.7628  Y19.7108 
G01 X8.8134  Y19.7614 
G01 X8.8796  Y19.7888 
G01 X8.9386  Y19.7888 
G01 X8.9386  Y23.4090 
G01 X7.6892  Y23.4090 
G01 X7.6230  Y23.4364 
G01 X7.5724  Y23.4870 
G01 X7.5450  Y23.5532 
G01 X7.5450  Y24.3818 
G01 X6.6805  Y24.3818 
G01 X6.5831  Y24.4079 
G01 X6.4957  Y24.4584 
G01 X6.4244  Y24.5297 
G01 X6.3739  Y24.6171 
G01 X6.3478  Y24.7145 
G01 X6.3478  Y27.3155 
G01 X6.0602  Y27.3155 
G01 X5.9940  Y27.3429 
G01 X5.9434  Y27.3935 
G01 X5.9160  Y27.4597 
G01 X5.9160  Y29.4363 
G01 X5.9434  Y29.5025 
G01 X5.9940  Y29.5531 
G01 X6.0602  Y29.5805 
G01 X6.3478  Y29.5805 
G01 X6.3478  Y34.3404 
G01 X6.3739  Y34.4379 
G01 X6.4244  Y34.5253 
G01 X6.4957  Y34.5966 
G01 X6.5831  Y34.6471 
G01 X6.6805  Y34.6732 
G01 X13.5360 Y34.6732 
G01 X13.5360 Y35.5958 
G01 X13.5634 Y35.6620 
G01 X13.6140 Y35.7126 
G01 X13.6802 Y35.7400 
G01 X15.0218 Y35.7400 
G01 X15.0880 Y35.7126 
G01 X15.1386 Y35.6620 
G01 X15.1660 Y35.5958 
G01 X15.1660 Y34.6732 
G01 X16.0760 Y34.6732 
G01 X16.0760 Y35.5958 
G01 X16.1034 Y35.6620 
G01 X16.1540 Y35.7126 
G01 X16.2202 Y35.7400 
G01 X17.5618 Y35.7400 
G01 X17.6280 Y35.7126 
G01 X17.6786 Y35.6620 
G01 X17.7060 Y35.5958 
G01 X17.7060 Y32.9842 
G01 X17.6786 Y32.9180 
G01 X17.6280 Y32.8674 
G01 X17.5618 Y32.8400 
G01 X16.2202 Y32.8400 
G01 X16.1540 Y32.8674 
G01 X16.1034 Y32.9180 
G01 X16.0760 Y32.9842 
G01 X16.0760 Y33.9068 
G01 X15.1660 Y33.9068 
G01 X15.1660 Y32.9842 
G01 X15.1386 Y32.9180 
G01 X15.0880 Y32.8674 
G01 X15.0218 Y32.8400 
G01 X13.6802 Y32.8400 
G01 X13.6140 Y32.8674 
G01 X13.5634 Y32.9180 
G01 X13.5360 Y32.9842 
G01 X13.5360 Y33.9068 
G01 X7.1142  Y33.9068 
G01 X7.1142  Y29.5805 
G01 X7.4018  Y29.5805 
G01 X7.4680  Y29.5531 
G01 X7.5186  Y29.5025 
G01 X7.5460  Y29.4363 
G01 X7.5460  Y27.4597 
G01 X7.5186  Y27.3935 
G01 X7.4680  Y27.3429 
G01 X7.4018  Y27.3155 
G01 X7.1142  Y27.3155 
G01 X7.1142  Y25.1482 
G01 X7.5450  Y25.1482 
G01 X7.5450  Y25.8248 
G01 X7.5724  Y25.8910 
G01 X7.6230  Y25.9416 
G01 X7.6892  Y25.9690 
G01 X11.3608 Y25.9690 
G01 X11.4270 Y25.9416 
G01 X11.4776 Y25.8910 
G01 X11.5050 Y25.8248 
G01 X11.5050 Y23.5532 
G01 X11.4776 Y23.4870 
G01 X11.4270 Y23.4364 
G01 X11.3608 Y23.4090 
G01 X10.1114 Y23.4090 
G01 X10.1114 Y19.7888 
G01 X10.1704 Y19.7888 
G01 X10.2366 Y19.7614 
G01 X10.2872 Y19.7108 
G01 X10.3146 Y19.6446 
G01 X10.3146 Y17.3378 
G01 X10.2872 Y17.2716 
G01 X10.2366 Y17.2210 
G01 X10.1704 Y17.1936 
G01 X10.1114 Y17.1936 
G01 X10.1114 Y13.5140 
G01 X10.1958 Y13.5140 
G01 X10.2620 Y13.4866 
G01 X10.3126 Y13.4360 
G01 X10.3400 Y13.3698 
G01 X10.3400 Y10.7582 
G01 X10.3126 Y10.6920 
G01 X10.2620 Y10.6414 
G01 X10.1958 Y10.6140 
G01 X10.1114 Y10.6140 
G01 X10.1114 Y8.0540  
G01 X10.1958 Y8.0540  
G01 X10.2620 Y8.0266  
G01 X10.3126 Y7.9760  
G01 X10.3400 Y7.9098  
G01 X10.3400 Y6.6189  
G01 X10.4026 Y6.5564  
G01 X21.5116 Y6.5564  
G01 X21.5116 Y8.5840  
G01 X21.4272 Y8.5840  
G01 X21.3610 Y8.6114  
G01 X21.3104 Y8.6620  
G01 X21.2830 Y8.7282  
G01 X21.2830 Y9.6498  
G01 X18.4915 Y9.6498  
G01 X18.3941 Y9.6759  
G01 X18.3067 Y9.7264  
G01 X18.2354 Y9.7977  
G01 X18.1849 Y9.8851  
G01 X18.1588 Y9.9825  
G01 X18.1588 Y10.8055 
G01 X17.8712 Y10.8055 
G01 X17.8050 Y10.8329 
G01 X17.7544 Y10.8835 
G01 X17.7270 Y10.9497 
G01 X17.7270 Y12.9263 
G01 X17.7544 Y12.9925 
G01 X17.8050 Y13.0431 
G01 X17.8712 Y13.0705 
G01 X19.2128 Y13.0705 
G01 X19.2790 Y13.0431 
G01 X19.3296 Y12.9925 
G01 X19.3570 Y12.9263 
G01 X19.3570 Y10.9497 
G01 X19.3296 Y10.8835 
G01 X19.2790 Y10.8329 
G01 X19.2128 Y10.8055 
G01 X18.9252 Y10.8055 
G01 X18.9252 Y10.4162 
G01 X21.2830 Y10.4162 
G01 X21.2830 Y11.3398 
G01 X21.3104 Y11.4060 
G01 X21.3610 Y11.4566 
G01 X21.4272 Y11.4840 
G01 X22.7688 Y11.4840 
G01 X22.8350 Y11.4566 
G01 X22.8856 Y11.4060 
G01 X22.9130 Y11.3398 
G01 X22.9130 Y8.7282  
G01 X22.8856 Y8.6620  
G01 X22.8350 Y8.6114  
G01 X22.7688 Y8.5840  
G01 X22.6844 Y8.5840  
G01 X22.6844 Y6.5561  
G01 X24.2542 Y6.5554  
G01 X35.2022 Y6.5554  
G01 X35.2022 Y9.4503  
G01 X35.1977 Y9.4580  
G01 X35.1647 Y9.5813  
G01 X35.1647 Y9.7090  
G01 X35.1977 Y9.8323  
G01 X35.2022 Y9.8400  
G01 X35.2022 Y18.0318 
G01 X33.7544 Y18.0318 
G01 X33.7350 Y18.0124 
G01 X33.6688 Y17.9850 
G01 X31.3972 Y17.9850 
G01 X31.3310 Y18.0124 
G01 X31.2804 Y18.0630 
G01 X31.2530 Y18.1292 
G01 X31.2530 Y18.7008 
G01 X31.2804 Y18.7670 
G01 X31.3310 Y18.8176 
G01 X31.3972 Y18.8450 
G01 X33.6688 Y18.8450 
G01 X33.7350 Y18.8176 
G01 X33.7544 Y18.7982 
G01 X35.2022 Y18.7982 
G01 X35.2022 Y33.5339 
G01 X35.1833 Y33.6045 
G01 X35.1833 Y34.5418 
G01 X33.8814 Y34.5418 
G01 X33.8620 Y34.5224 
G01 X33.7958 Y34.4950 
G01 X31.5242 Y34.4950 
G01 X31.4580 Y34.5224 
G01 X31.4386 Y34.5418 
G01 X28.1327 Y34.5418 
G01 X28.1327 Y28.9328 
G01 X28.8902 Y28.9328 
G01 X28.9564 Y28.9054 
G01 X29.0070 Y28.8548 
G01 X29.0344 Y28.7886 
G01 X29.0344 Y28.1074 
G01 X29.0070 Y28.0412 
G01 X28.9564 Y27.9906 
G01 X28.8902 Y27.9632 
G01 X26.6088 Y27.9632 
G01 X26.5426 Y27.9906 
G01 X26.4920 Y28.0412 
G01 X26.4646 Y28.1074 
G01 X26.4646 Y28.7886 
G01 X26.4920 Y28.8548 
G01 X26.5426 Y28.9054 
G01 X26.6088 Y28.9328 
G01 X27.3663 Y28.9328 
G01 X27.3663 Y34.9755 
G01 X27.3924 Y35.0729 
G01 X27.4429 Y35.1603 
G01 X27.5142 Y35.2316 
G01 X27.6016 Y35.2821 
G01 X27.6990 Y35.3082 
G01 X31.4386 Y35.3082 
G01 X31.4580 Y35.3276 
G01 X31.5242 Y35.3550 
G01 X33.7958 Y35.3550 
G01 X33.8620 Y35.3276 
G01 X33.8814 Y35.3082 
G01 X35.2641 Y35.3082 
G01 X35.2688 Y35.3129 
G01 X35.3794 Y35.3768 
G01 X35.5027 Y35.4098 
G01 X35.7508 Y35.4098 
G01 X35.8741 Y35.3768 
G01 X35.9847 Y35.3129 
G01 X36.0749 Y35.2227 
G01 X36.1388 Y35.1121 
G01 X36.1718 Y34.9888 
G01 X36.1718 Y34.0382 
G01 X37.7466 Y34.0382 
G01 X37.7660 Y34.0576 
G01 X37.8322 Y34.0850 
G01 X40.1038 Y34.0850 
G01 X40.1700 Y34.0576 
G01 X40.2206 Y34.0070 
G01 X40.2480 Y33.9408 
G01 X40.2480 Y33.3692 
G01 X40.2206 Y33.3030 
G01 X40.1700 Y33.2524 
G01 X40.1038 Y33.2250 
G01 X37.8322 Y33.2250 
G01 X37.7660 Y33.2524 
G01 X37.7466 Y33.2718 
G01 X36.1718 Y33.2718 
G01 X36.1718 Y28.3232 
G01 X38.4280 Y28.3232 
G01 X38.4280 Y28.9283 
G01 X38.4554 Y28.9945 
G01 X38.5060 Y29.0451 
G01 X38.5722 Y29.0725 
G01 X39.9138 Y29.0725 
G01 X39.9800 Y29.0451 
G01 X40.0306 Y28.9945 
G01 X40.0580 Y28.9283 
G01 X40.0580 Y26.9517 
G01 X40.0306 Y26.8855 
G01 X39.9800 Y26.8349 
G01 X39.9138 Y26.8075 
G01 X38.5722 Y26.8075 
G01 X38.5060 Y26.8349 
G01 X38.4554 Y26.8855 
G01 X38.4280 Y26.9517 
G01 X38.4280 Y27.5568 
G01 X36.1718 Y27.5568 
G01 X36.1718 Y25.5292 
G01 X38.4280 Y25.5292 
G01 X38.4280 Y26.1343 
G01 X38.4554 Y26.2005 
G01 X38.5060 Y26.2511 
G01 X38.5722 Y26.2785 
G01 X39.9138 Y26.2785 
G01 X39.9800 Y26.2511 
G01 X40.0306 Y26.2005 
G01 X40.0580 Y26.1343 
G01 X40.0580 Y24.1577 
G01 X40.0306 Y24.0915 
G01 X39.9800 Y24.0409 
G01 X39.9138 Y24.0135 
G01 X38.5722 Y24.0135 
G01 X38.5060 Y24.0409 
G01 X38.4554 Y24.0915 
G01 X38.4280 Y24.1577 
G01 X38.4280 Y24.7628 
G01 X36.1718 Y24.7628 
G01 X36.1718 Y17.5282 
G01 X37.6196 Y17.5282 
G01 X37.6390 Y17.5476 
G01 X37.7052 Y17.5750 
G01 X39.9768 Y17.5750 
G01 X40.0430 Y17.5476 
G01 X40.0936 Y17.4970 
G01 X40.1210 Y17.4308 
G01 X40.1210 Y16.8592 
G01 X40.0936 Y16.7930 
G01 X40.0430 Y16.7424 
G01 X39.9768 Y16.7150 
G01 X37.7052 Y16.7150 
G01 X37.6390 Y16.7424 
G01 X37.6196 Y16.7618 
G01 X36.1718 Y16.7618 
G01 X36.1718 Y10.1622 
G01 X38.4280 Y10.1622 
G01 X38.4280 Y10.7673 
G01 X38.4554 Y10.8335 
G01 X38.5060 Y10.8841 
G01 X38.5722 Y10.9115 
G01 X39.9138 Y10.9115 
G01 X39.9800 Y10.8841 
G01 X40.0306 Y10.8335 
G01 X40.0580 Y10.7673 
G01 X40.0580 Y8.7907  
G01 X40.0306 Y8.7245  
G01 X39.9800 Y8.6739  
G01 X39.9138 Y8.6465  
G01 X38.5722 Y8.6465  
G01 X38.5060 Y8.6739  
G01 X38.4554 Y8.7245  
G01 X38.4280 Y8.7907  
G01 X38.4280 Y9.3958  
G01 X36.1718 Y9.3958  
G01 X36.1718 Y7.3682  
G01 X38.4280 Y7.3682  
G01 X38.4280 Y7.9733  
G01 X38.4554 Y8.0395  
G01 X38.5060 Y8.0901  
G01 X38.5722 Y8.1175  
G01 X39.9138 Y8.1175  
G01 X39.9800 Y8.0901  
G01 X40.0306 Y8.0395  
G01 X40.0580 Y7.9733  
G01 X40.0580 Y5.9967  
G01 X40.0306 Y5.9305  
G01 X39.9800 Y5.8799  
G01 X39.9138 Y5.8525  
G01 X38.5722 Y5.8525  
G01 X38.5060 Y5.8799  
G01 X38.4554 Y5.9305  
G01 X38.4280 Y5.9967  
G01 X38.4280 Y6.6018  
G01 X36.1718 Y6.6018  
G01 X36.1718 Y6.2989  
G01 X36.2067 Y6.2468  
G01 X36.2509 Y6.1400  
G01 X36.2734 Y6.0268  
G01 X36.2734 Y5.9112  
G01 X36.2509 Y5.7980  
G01 X36.2067 Y5.6912  
G01 X36.1425 Y5.5952  
G01 X36.0608 Y5.5135  
G01 X35.9648 Y5.4493  
G01 X35.8580 Y5.4051  
G01 X35.7448 Y5.3826  
G01 X24.3146 Y5.3826  
G01 X24.2541 Y5.3826  
G01 X24.1992 Y5.3826  
G01 X22.1006 Y5.3836  
G01 X10.3400 Y5.3836  
G01 X10.3400 Y5.2982  
G01 X10.3126 Y5.2320  
G01 X10.2620 Y5.1814  
G01 X10.1958 Y5.1540  
G01 X8.8542  Y5.1540  
G01 X8.7880  Y5.1814  
G01 X8.7374  Y5.2320  
G00 Z2.5400  
G00 X10.7932 Y9.3684  
G01 Z-0.1778 F254   
G01 X10.7595 Y9.4268  F508   
G01 X10.7420 Y9.4920  
G01 X10.7420 Y9.5594  
G01 X10.7595 Y9.6246  
G01 X10.7932 Y9.6830  
G01 X10.8409 Y9.7307  
G01 X10.8993 Y9.7644  
G01 X10.9645 Y9.7819  
G01 X12.1166 Y9.7819  
G01 X12.1817 Y9.7644  
G01 X12.2402 Y9.7307  
G01 X12.2879 Y9.6830  
G01 X12.3216 Y9.6246  
G01 X12.3391 Y9.5594  
G01 X12.3391 Y9.4920  
G01 X12.3216 Y9.4268  
G01 X12.2879 Y9.3684  
G01 X12.2402 Y9.3207  
G01 X12.1817 Y9.2870  
G01 X12.1166 Y9.2695  
G01 X10.9645 Y9.2695  
G01 X10.8993 Y9.2870  
G01 X10.8409 Y9.3207  
G01 X10.7932 Y9.3684  
G00 Z2.5400  
G00 X5.9716  Y9.3706  
G01 Z-0.1778 F254   
G01 X5.9891  Y9.3054  F508   
G01 X5.9891  Y9.2380  
G01 X5.9716  Y9.1728  
G01 X5.9379  Y9.1144  
G01 X5.8902  Y9.0667  
G01 X5.8317  Y9.0330  
G01 X5.7666  Y9.0155  
G01 X5.4467  Y9.0155  
G01 X5.4467  Y8.6956  
G01 X5.4293  Y8.6305  
G01 X5.3955  Y8.5721  
G01 X5.3478  Y8.5244  
G01 X5.2894  Y8.4906  
G01 X5.2243  Y8.4732  
G01 X5.1568  Y8.4732  
G01 X5.0916  Y8.4906  
G01 X5.0332  Y8.5244  
G01 X4.9855  Y8.5721  
G01 X4.9518  Y8.6305  
G01 X4.9343  Y8.6956  
G01 X4.9343  Y9.0155  
G01 X4.6145  Y9.0155  
G01 X4.5493  Y9.0330  
G01 X4.4909  Y9.0667  
G01 X4.4432  Y9.1144  
G01 X4.4095  Y9.1728  
G01 X4.3920  Y9.2380  
G01 X4.3920  Y9.3054  
G01 X4.4095  Y9.3706  
G01 X4.4432  Y9.4290  
G01 X4.4909  Y9.4767  
G01 X4.5493  Y9.5104  
G01 X4.6145  Y9.5279  
G01 X4.9343  Y9.5279  
G01 X4.9343  Y9.8478  
G01 X4.9518  Y9.9129  
G01 X4.9855  Y9.9713  
G01 X5.0332  Y10.0190 
G01 X5.0916  Y10.0528 
G01 X5.1568  Y10.0702 
G01 X5.2243  Y10.0702 
G01 X5.2894  Y10.0528 
G01 X5.3478  Y10.0190 
G01 X5.3955  Y9.9713  
G01 X5.4293  Y9.9129  
G01 X5.4467  Y9.8478  
G01 X5.4467  Y9.5279  
G01 X5.7666  Y9.5279  
G01 X5.8317  Y9.5104  
G01 X5.8902  Y9.4767  
G01 X5.9379  Y9.4290  
G01 X5.9716  Y9.3706  
G00 Z2.5400  
G00 X14.4524 Y10.8835 
G01 Z-0.1778 F254   
G01 X14.4250 Y10.9497 F508   
G01 X14.4250 Y12.9263 
G01 X14.4524 Y12.9925 
G01 X14.5030 Y13.0431 
G01 X14.5692 Y13.0705 
G01 X14.8568 Y13.0705 
G01 X14.8568 Y13.7265 
G01 X14.5692 Y13.7265 
G01 X14.5030 Y13.7539 
G01 X14.4524 Y13.8045 
G01 X14.4250 Y13.8707 
G01 X14.4250 Y15.8473 
G01 X14.4524 Y15.9135 
G01 X14.5030 Y15.9641 
G01 X14.5692 Y15.9915 
G01 X15.9108 Y15.9915 
G01 X15.9770 Y15.9641 
G01 X16.0276 Y15.9135 
G01 X16.0550 Y15.8473 
G01 X16.0550 Y13.8707 
G01 X16.0276 Y13.8045 
G01 X15.9770 Y13.7539 
G01 X15.9108 Y13.7265 
G01 X15.6232 Y13.7265 
G01 X15.6232 Y13.0705 
G01 X15.9108 Y13.0705 
G01 X15.9770 Y13.0431 
G01 X16.0276 Y12.9925 
G01 X16.0550 Y12.9263 
G01 X16.0550 Y10.9497 
G01 X16.0276 Y10.8835 
G01 X15.9770 Y10.8329 
G01 X15.9108 Y10.8055 
G01 X14.5692 Y10.8055 
G01 X14.5030 Y10.8329 
G01 X14.4524 Y10.8835 
G00 Z2.5400  
G00 X17.7544 Y13.8045 
G01 Z-0.1778 F254   
G01 X17.7270 Y13.8707 F508   
G01 X17.7270 Y15.8473 
G01 X17.7544 Y15.9135 
G01 X17.8050 Y15.9641 
G01 X17.8712 Y15.9915 
G01 X18.1588 Y15.9915 
G01 X18.1588 Y22.1485 
G01 X18.1849 Y22.2459 
G01 X18.2354 Y22.3333 
G01 X18.3067 Y22.4046 
G01 X18.3941 Y22.4551 
G01 X18.4915 Y22.4812 
G01 X21.2752 Y22.4812 
G01 X21.2850 Y22.5048 
G01 X21.3356 Y22.5554 
G01 X21.4018 Y22.5828 
G01 X23.6832 Y22.5828 
G01 X23.7494 Y22.5554 
G01 X23.8000 Y22.5048 
G01 X23.8274 Y22.4386 
G01 X23.8274 Y21.7574 
G01 X23.8000 Y21.6912 
G01 X23.7494 Y21.6406 
G01 X23.6832 Y21.6132 
G01 X21.4018 Y21.6132 
G01 X21.3356 Y21.6406 
G01 X21.2850 Y21.6912 
G01 X21.2752 Y21.7148 
G01 X18.9252 Y21.7148 
G01 X18.9252 Y15.9915 
G01 X19.2128 Y15.9915 
G01 X19.2790 Y15.9641 
G01 X19.3296 Y15.9135 
G01 X19.3570 Y15.8473 
G01 X19.3570 Y13.8707 
G01 X19.3296 Y13.8045 
G01 X19.2790 Y13.7539 
G01 X19.2128 Y13.7265 
G01 X17.8712 Y13.7265 
G01 X17.8050 Y13.7539 
G01 X17.7544 Y13.8045 
G00 Z2.5400  
G00 X21.3104 Y14.1220 
G01 Z-0.1778 F254   
G01 X21.2830 Y14.1882 F508   
G01 X21.2830 Y16.7998 
G01 X21.3104 Y16.8660 
G01 X21.3610 Y16.9166 
G01 X21.4272 Y16.9440 
G01 X21.7148 Y16.9440 
G01 X21.7148 Y19.1004 
G01 X21.7409 Y19.1979 
G01 X21.7914 Y19.2853 
G01 X21.8627 Y19.3566 
G01 X21.9501 Y19.4071 
G01 X22.0475 Y19.4332 
G01 X23.8992 Y19.4332 
G01 X23.8992 Y24.2548 
G01 X23.8098 Y24.2548 
G01 X23.8000 Y24.2312 
G01 X23.7494 Y24.1806 
G01 X23.6832 Y24.1532 
G01 X21.4018 Y24.1532 
G01 X21.3356 Y24.1806 
G01 X21.2850 Y24.2312 
G01 X21.2576 Y24.2974 
G01 X21.2576 Y24.5002 
G01 X19.4840 Y24.8491 
G01 X19.4840 Y24.4117 
G01 X19.4566 Y24.3455 
G01 X19.4060 Y24.2949 
G01 X19.3398 Y24.2675 
G01 X17.9982 Y24.2675 
G01 X17.9320 Y24.2949 
G01 X17.8814 Y24.3455 
G01 X17.8540 Y24.4117 
G01 X17.8540 Y26.3883 
G01 X17.8814 Y26.4545 
G01 X17.9320 Y26.5051 
G01 X17.9982 Y26.5325 
G01 X19.3398 Y26.5325 
G01 X19.4060 Y26.5051 
G01 X19.4566 Y26.4545 
G01 X19.4840 Y26.3883 
G01 X19.4840 Y25.6302 
G01 X22.0634 Y25.1228 
G01 X23.6832 Y25.1228 
G01 X23.7494 Y25.0954 
G01 X23.8000 Y25.0448 
G01 X23.8098 Y25.0212 
G01 X24.3074 Y25.0212 
G01 X24.4049 Y24.9951 
G01 X24.4923 Y24.9446 
G01 X24.5636 Y24.8733 
G01 X24.6141 Y24.7859 
G01 X24.6402 Y24.6884 
G01 X24.6402 Y24.5875 
G01 X24.6148 Y24.4928 
G01 X24.6148 Y19.1952 
G01 X24.6402 Y19.1004 
G01 X24.6402 Y18.9995 
G01 X24.6141 Y18.9021 
G01 X24.5636 Y18.8147 
G01 X24.4923 Y18.7434 
G01 X24.4049 Y18.6929 
G01 X24.3074 Y18.6668 
G01 X22.4812 Y18.6668 
G01 X22.4812 Y16.9440 
G01 X22.7688 Y16.9440 
G01 X22.8350 Y16.9166 
G01 X22.8856 Y16.8660 
G01 X22.9130 Y16.7998 
G01 X22.9130 Y14.1882 
G01 X22.8856 Y14.1220 
G01 X22.8350 Y14.0714 
G01 X22.7688 Y14.0440 
G01 X21.4272 Y14.0440 
G01 X21.3610 Y14.0714 
G01 X21.3104 Y14.1220 
G00 Z2.5400  
G00 X20.8302 Y12.5752 
G01 Z-0.1778 F254   
G01 X24.6884 Y12.5752 F508   
G01 X24.7859 Y12.5491 
G01 X24.8733 Y12.4986 
G01 X24.9446 Y12.4273 
G01 X24.9951 Y12.3399 
G01 X25.0212 Y12.2424 
G01 X25.0212 Y11.4840 
G01 X25.3088 Y11.4840 
G01 X25.3750 Y11.4566 
G01 X25.4256 Y11.4060 
G01 X25.4530 Y11.3398 
G01 X25.4530 Y8.7282  
G01 X25.4256 Y8.6620  
G01 X25.3750 Y8.6114  
G01 X25.3088 Y8.5840  
G01 X23.9672 Y8.5840  
G01 X23.9010 Y8.6114  
G01 X23.8504 Y8.6620  
G01 X23.8230 Y8.7282  
G01 X23.8230 Y11.3398 
G01 X23.8504 Y11.4060 
G01 X23.9010 Y11.4566 
G01 X23.9672 Y11.4840 
G01 X24.2548 Y11.4840 
G01 X24.2548 Y11.8088 
G01 X20.3965 Y11.8088 
G01 X20.2991 Y11.8349 
G01 X20.2117 Y11.8854 
G01 X20.1404 Y11.9567 
G01 X20.0899 Y12.0441 
G01 X20.0638 Y12.1415 
G01 X20.0638 Y20.8785 
G01 X20.0899 Y20.9759 
G01 X20.1404 Y21.0633 
G01 X20.2117 Y21.1346 
G01 X20.2991 Y21.1851 
G01 X20.3965 Y21.2112 
G01 X21.2752 Y21.2112 
G01 X21.2850 Y21.2348 
G01 X21.3356 Y21.2854 
G01 X21.4018 Y21.3128 
G01 X23.6832 Y21.3128 
G01 X23.7494 Y21.2854 
G01 X23.8000 Y21.2348 
G01 X23.8274 Y21.1686 
G01 X23.8274 Y20.4874 
G01 X23.8000 Y20.4212 
G01 X23.7494 Y20.3706 
G01 X23.6832 Y20.3432 
G01 X21.4018 Y20.3432 
G01 X21.3356 Y20.3706 
G01 X21.2850 Y20.4212 
G01 X21.2752 Y20.4448 
G01 X20.8302 Y20.4448 
G01 X20.8302 Y12.5752 
G00 Z2.5400  
G00 X23.0817 Y12.9883 
G01 Z-0.1778 F254   
G01 X23.0346 Y13.0699 F508   
G01 X23.0102 Y13.1609 
G01 X23.0102 Y17.6348 
G01 X22.9848 Y17.7295 
G01 X22.9848 Y17.8304 
G01 X23.0109 Y17.9279 
G01 X23.0614 Y18.0153 
G01 X23.1327 Y18.0866 
G01 X23.2201 Y18.1371 
G01 X23.3175 Y18.1632 
G01 X24.7882 Y18.1632 
G01 X24.7882 Y24.4928 
G01 X24.7628 Y24.5875 
G01 X24.7628 Y24.6884 
G01 X24.7882 Y24.7832 
G01 X24.7882 Y28.0648 
G01 X23.8098 Y28.0648 
G01 X23.8000 Y28.0412 
G01 X23.7494 Y27.9906 
G01 X23.6832 Y27.9632 
G01 X21.4018 Y27.9632 
G01 X21.3356 Y27.9906 
G01 X21.2850 Y28.0412 
G01 X21.2576 Y28.1074 
G01 X21.2576 Y28.7886 
G01 X21.2850 Y28.8548 
G01 X21.3356 Y28.9054 
G01 X21.4018 Y28.9328 
G01 X22.1593 Y28.9328 
G01 X22.1593 Y30.1231 
G01 X20.3988 Y31.0620 
G01 X18.6967 Y31.0620 
G01 X18.6305 Y31.0894 
G01 X18.5799 Y31.1400 
G01 X18.5525 Y31.2062 
G01 X18.5525 Y31.3668 
G01 X12.8292 Y31.3668 
G01 X12.8292 Y26.8287 
G01 X14.1287 Y25.5292 
G01 X14.5520 Y25.5292 
G01 X14.5520 Y26.3883 
G01 X14.5794 Y26.4545 
G01 X14.6300 Y26.5051 
G01 X14.6962 Y26.5325 
G01 X16.0378 Y26.5325 
G01 X16.1040 Y26.5051 
G01 X16.1546 Y26.4545 
G01 X16.1820 Y26.3883 
G01 X16.1820 Y24.4117 
G01 X16.1546 Y24.3455 
G01 X16.1040 Y24.2949 
G01 X16.0378 Y24.2675 
G01 X14.6962 Y24.2675 
G01 X14.6300 Y24.2949 
G01 X14.5794 Y24.3455 
G01 X14.5520 Y24.4117 
G01 X14.5520 Y24.7628 
G01 X14.3532 Y24.7628 
G01 X14.3532 Y18.4407 
G01 X14.3271 Y18.3433 
G01 X14.2766 Y18.2559 
G01 X14.2053 Y18.1846 
G01 X14.1179 Y18.1341 
G01 X14.0205 Y18.1080 
G01 X12.6260 Y18.1080 
G01 X12.6260 Y17.3378 
G01 X12.5986 Y17.2716 
G01 X12.5480 Y17.2210 
G01 X12.4818 Y17.1936 
G01 X11.1910 Y17.1936 
G01 X11.1248 Y17.2210 
G01 X11.0742 Y17.2716 
G01 X11.0468 Y17.3378 
G01 X11.0468 Y19.6446 
G01 X11.0742 Y19.7108 
G01 X11.1248 Y19.7614 
G01 X11.1910 Y19.7888 
G01 X12.4818 Y19.7888 
G01 X12.5480 Y19.7614 
G01 X12.5986 Y19.7108 
G01 X12.6260 Y19.6446 
G01 X12.6260 Y18.8744 
G01 X13.5868 Y18.8744 
G01 X13.5868 Y24.9873 
G01 X12.1394 Y26.4347 
G01 X12.0889 Y26.5221 
G01 X12.0628 Y26.6195 
G01 X12.0628 Y28.0648 
G01 X10.8480 Y28.0648 
G01 X10.8480 Y27.4597 
G01 X10.8206 Y27.3935 
G01 X10.7700 Y27.3429 
G01 X10.7038 Y27.3155 
G01 X9.3622  Y27.3155 
G01 X9.2960  Y27.3429 
G01 X9.2454  Y27.3935 
G01 X9.2180  Y27.4597 
G01 X9.2180  Y29.4363 
G01 X9.2454  Y29.5025 
G01 X9.2960  Y29.5531 
G01 X9.3622  Y29.5805 
G01 X10.7038 Y29.5805 
G01 X10.7700 Y29.5531 
G01 X10.8206 Y29.5025 
G01 X10.8480 Y29.4363 
G01 X10.8480 Y28.8312 
G01 X12.0628 Y28.8312 
G01 X12.0628 Y31.8005 
G01 X12.0889 Y31.8979 
G01 X12.1394 Y31.9853 
G01 X12.2107 Y32.0566 
G01 X12.2981 Y32.1071 
G01 X12.3955 Y32.1332 
G01 X18.5525 Y32.1332 
G01 X18.5525 Y32.5478 
G01 X18.5799 Y32.6140 
G01 X18.6305 Y32.6646 
G01 X18.6967 Y32.6920 
G01 X20.6733 Y32.6920 
G01 X20.7395 Y32.6646 
G01 X20.7901 Y32.6140 
G01 X20.8175 Y32.5478 
G01 X20.8175 Y31.7073 
G01 X22.6841 Y30.7118 
G01 X22.6904 Y30.7101 
G01 X22.7285 Y30.6881 
G01 X22.7673 Y30.6674 
G01 X22.7721 Y30.6629 
G01 X22.7778 Y30.6596 
G01 X22.8089 Y30.6285 
G01 X22.8410 Y30.5985 
G01 X22.8445 Y30.5929 
G01 X22.8491 Y30.5883 
G01 X22.8711 Y30.5502 
G01 X22.8944 Y30.5128 
G01 X22.8963 Y30.5066 
G01 X22.8996 Y30.5009 
G01 X22.9110 Y30.4584 
G01 X22.9238 Y30.4163 
G01 X22.9240 Y30.4098 
G01 X22.9257 Y30.4034 
G01 X22.9257 Y30.3595 
G01 X22.9272 Y30.3155 
G01 X22.9257 Y30.3091 
G01 X22.9257 Y28.9328 
G01 X23.6832 Y28.9328 
G01 X23.7494 Y28.9054 
G01 X23.8000 Y28.8548 
G01 X23.8098 Y28.8312 
G01 X25.1964 Y28.8312 
G01 X25.2939 Y28.8051 
G01 X25.3813 Y28.7546 
G01 X25.4526 Y28.6833 
G01 X25.5031 Y28.5959 
G01 X25.5292 Y28.4984 
G01 X25.5292 Y28.3975 
G01 X25.5038 Y28.3028 
G01 X25.5038 Y25.0212 
G01 X26.4822 Y25.0212 
G01 X26.4920 Y25.0448 
G01 X26.5426 Y25.0954 
G01 X26.6088 Y25.1228 
G01 X28.8902 Y25.1228 
G01 X28.9564 Y25.0954 
G01 X29.0070 Y25.0448 
G01 X29.0168 Y25.0212 
G01 X31.8748 Y25.0212 
G01 X31.8748 Y30.6950 
G01 X31.5242 Y30.6950 
G01 X31.4580 Y30.7224 
G01 X31.4074 Y30.7730 
G01 X31.3800 Y30.8392 
G01 X31.3800 Y31.4108 
G01 X31.4074 Y31.4770 
G01 X31.4580 Y31.5276 
G01 X31.5242 Y31.5550 
G01 X33.7958 Y31.5550 
G01 X33.8620 Y31.5276 
G01 X33.9126 Y31.4770 
G01 X33.9400 Y31.4108 
G01 X33.9400 Y30.8392 
G01 X33.9126 Y30.7730 
G01 X33.8620 Y30.7224 
G01 X33.7958 Y30.6950 
G01 X32.6412 Y30.6950 
G01 X32.6412 Y24.5875 
G01 X32.6151 Y24.4901 
G01 X32.5646 Y24.4027 
G01 X32.4933 Y24.3314 
G01 X32.4059 Y24.2809 
G01 X32.3085 Y24.2548 
G01 X29.0168 Y24.2548 
G01 X29.0070 Y24.2312 
G01 X28.9564 Y24.1806 
G01 X28.8902 Y24.1532 
G01 X26.6088 Y24.1532 
G01 X26.5426 Y24.1806 
G01 X26.4920 Y24.2312 
G01 X26.4822 Y24.2548 
G01 X25.5038 Y24.2548 
G01 X25.5038 Y17.9252 
G01 X25.5292 Y17.8304 
G01 X25.5292 Y17.7295 
G01 X25.5031 Y17.6321 
G01 X25.4526 Y17.5447 
G01 X25.3813 Y17.4734 
G01 X25.2939 Y17.4229 
G01 X25.1964 Y17.3968 
G01 X23.7258 Y17.3968 
G01 X23.7258 Y13.5658 
G01 X27.0328 Y13.5658 
G01 X27.1275 Y13.5912 
G01 X27.2284 Y13.5912 
G01 X27.3259 Y13.5651 
G01 X27.4133 Y13.5146 
G01 X27.4846 Y13.4433 
G01 X27.5351 Y13.3559 
G01 X27.5612 Y13.2584 
G01 X27.5612 Y11.4840 
G01 X27.8488 Y11.4840 
G01 X27.9150 Y11.4566 
G01 X27.9656 Y11.4060 
G01 X27.9930 Y11.3398 
G01 X27.9930 Y10.4172 
G01 X32.1498 Y10.4172 
G01 X32.1498 Y14.1850 
G01 X31.3972 Y14.1850 
G01 X31.3310 Y14.2124 
G01 X31.2804 Y14.2630 
G01 X31.2530 Y14.3292 
G01 X31.2530 Y14.9008 
G01 X31.2804 Y14.9670 
G01 X31.3310 Y15.0176 
G01 X31.3972 Y15.0450 
G01 X33.6688 Y15.0450 
G01 X33.7350 Y15.0176 
G01 X33.7856 Y14.9670 
G01 X33.8130 Y14.9008 
G01 X33.8130 Y14.3292 
G01 X33.7856 Y14.2630 
G01 X33.7350 Y14.2124 
G01 X33.6688 Y14.1850 
G01 X32.9162 Y14.1850 
G01 X32.9162 Y9.9835  
G01 X32.8901 Y9.8861  
G01 X32.8396 Y9.7987  
G01 X32.7683 Y9.7274  
G01 X32.6809 Y9.6769  
G01 X32.5834 Y9.6508  
G01 X27.9930 Y9.6508  
G01 X27.9930 Y8.7282  
G01 X27.9656 Y8.6620  
G01 X27.9150 Y8.6114  
G01 X27.8488 Y8.5840  
G01 X26.5072 Y8.5840  
G01 X26.4410 Y8.6114  
G01 X26.3904 Y8.6620  
G01 X26.3630 Y8.7282  
G01 X26.3630 Y11.3398 
G01 X26.3904 Y11.4060 
G01 X26.4410 Y11.4566 
G01 X26.5072 Y11.4840 
G01 X26.7948 Y11.4840 
G01 X26.7948 Y12.8502 
G01 X23.3209 Y12.8502 
G01 X23.2299 Y12.8746 
G01 X23.1483 Y12.9217 
G01 X23.0817 Y12.9883 
G00 Z2.5400  
G00 X23.8504 Y14.1220 
G01 Z-0.1778 F254   
G01 X23.8230 Y14.1882 F508   
G01 X23.8230 Y16.7998 
G01 X23.8504 Y16.8660 
G01 X23.9010 Y16.9166 
G01 X23.9672 Y16.9440 
G01 X25.2369 Y16.9440 
G01 X25.5795 Y17.2866 
G01 X25.7019 Y21.5711 
G01 X25.6998 Y21.5863 
G01 X25.7032 Y21.6147 
G01 X25.7040 Y21.6432 
G01 X25.7084 Y21.6580 
G01 X25.7102 Y21.6732 
G01 X25.7209 Y21.6997 
G01 X25.7290 Y21.7271 
G01 X25.7371 Y21.7402 
G01 X25.7428 Y21.7544 
G01 X25.7600 Y21.7773 
G01 X25.7750 Y21.8016 
G01 X25.7861 Y21.8122 
G01 X26.1381 Y22.2815 
G01 X26.1500 Y22.3021 
G01 X26.1642 Y22.3163 
G01 X26.1763 Y22.3324 
G01 X26.1951 Y22.3471 
G01 X26.2119 Y22.3640 
G01 X26.2293 Y22.3741 
G01 X26.2452 Y22.3865 
G01 X26.2671 Y22.3958 
G01 X26.2877 Y22.4077 
G01 X26.3071 Y22.4130 
G01 X26.3257 Y22.4209 
G01 X26.3493 Y22.4242 
G01 X26.3722 Y22.4304 
G01 X26.3924 Y22.4304 
G01 X26.4123 Y22.4332 
G01 X26.4359 Y22.4304 
G01 X26.4646 Y22.4304 
G01 X26.4646 Y22.4386 
G01 X26.4920 Y22.5048 
G01 X26.5426 Y22.5554 
G01 X26.6088 Y22.5828 
G01 X28.8902 Y22.5828 
G01 X28.9564 Y22.5554 
G01 X29.0070 Y22.5048 
G01 X29.0168 Y22.4812 
G01 X29.5145 Y22.4812 
G01 X29.6119 Y22.4551 
G01 X29.6993 Y22.4046 
G01 X29.7706 Y22.3333 
G01 X29.8211 Y22.2459 
G01 X29.8472 Y22.1485 
G01 X29.8472 Y16.2582 
G01 X31.3016 Y16.2582 
G01 X31.3310 Y16.2876 
G01 X31.3972 Y16.3150 
G01 X33.6688 Y16.3150 
G01 X33.7350 Y16.2876 
G01 X33.7856 Y16.2370 
G01 X33.8130 Y16.1708 
G01 X33.8130 Y15.5992 
G01 X33.7856 Y15.5330 
G01 X33.7350 Y15.4824 
G01 X33.6688 Y15.4550 
G01 X31.3972 Y15.4550 
G01 X31.3310 Y15.4824 
G01 X31.3216 Y15.4918 
G01 X29.4135 Y15.4918 
G01 X29.3161 Y15.5179 
G01 X29.2287 Y15.5684 
G01 X29.1574 Y15.6397 
G01 X29.1069 Y15.7271 
G01 X29.0808 Y15.8245 
G01 X29.0808 Y21.7148 
G01 X29.0168 Y21.7148 
G01 X29.0070 Y21.6912 
G01 X28.9564 Y21.6406 
G01 X28.8902 Y21.6132 
G01 X26.6088 Y21.6132 
G01 X26.5426 Y21.6406 
G01 X26.5117 Y21.6716 
G01 X26.3642 Y21.4750 
G01 X26.2404 Y17.1402 
G01 X26.2404 Y17.1012 
G01 X26.2391 Y17.0966 
G01 X26.2390 Y17.0918 
G01 X26.2278 Y17.0543 
G01 X26.2177 Y17.0167 
G01 X26.2153 Y17.0125 
G01 X26.2140 Y17.0079 
G01 X26.1935 Y16.9747 
G01 X26.1740 Y16.9409 
G01 X26.1706 Y16.9375 
G01 X26.1680 Y16.9334 
G01 X26.1397 Y16.9066 
G01 X25.4530 Y16.2199 
G01 X25.4530 Y14.1882 
G01 X25.4256 Y14.1220 
G01 X25.3750 Y14.0714 
G01 X25.3088 Y14.0440 
G01 X23.9672 Y14.0440 
G01 X23.9010 Y14.0714 
G01 X23.8504 Y14.1220 
G00 Z2.5400  
G00 X26.3904 Y14.1220 
G01 Z-0.1778 F254   
G01 X26.3630 Y14.1882 F508   
G01 X26.3630 Y16.7998 
G01 X26.3904 Y16.8660 
G01 X26.4410 Y16.9166 
G01 X26.5072 Y16.9440 
G01 X26.7948 Y16.9440 
G01 X26.7948 Y20.3432 
G01 X26.6088 Y20.3432 
G01 X26.5426 Y20.3706 
G01 X26.4920 Y20.4212 
G01 X26.4646 Y20.4874 
G01 X26.4646 Y21.1686 
G01 X26.4920 Y21.2348 
G01 X26.5426 Y21.2854 
G01 X26.6088 Y21.3128 
G01 X28.8902 Y21.3128 
G01 X28.9564 Y21.2854 
G01 X29.0070 Y21.2348 
G01 X29.0344 Y21.1686 
G01 X29.0344 Y20.4874 
G01 X29.0070 Y20.4212 
G01 X28.9564 Y20.3706 
G01 X28.8902 Y20.3432 
G01 X27.5612 Y20.3432 
G01 X27.5612 Y16.9440 
G01 X27.8488 Y16.9440 
G01 X27.9150 Y16.9166 
G01 X27.9656 Y16.8660 
G01 X27.9930 Y16.7998 
G01 X27.9930 Y14.1882 
G01 X27.9656 Y14.1220 
G01 X27.9150 Y14.0714 
G01 X27.8488 Y14.0440 
G01 X26.5072 Y14.0440 
G01 X26.4410 Y14.0714 
G01 X26.3904 Y14.1220 
G00 Z2.5400  
G00 X28.9092 Y12.8130 
G01 Z-0.1778 F254   
G01 X28.9676 Y12.8468 F508   
G01 X29.0328 Y12.8642 
G01 X29.1003 Y12.8642 
G01 X29.1654 Y12.8468 
G01 X29.2238 Y12.8130 
G01 X29.2715 Y12.7653 
G01 X29.3053 Y12.7069 
G01 X29.3227 Y12.6418 
G01 X29.3227 Y12.3219 
G01 X29.6426 Y12.3219 
G01 X29.7077 Y12.3044 
G01 X29.7662 Y12.2707 
G01 X29.8139 Y12.2230 
G01 X29.8476 Y12.1646 
G01 X29.8651 Y12.0994 
G01 X29.8651 Y12.0320 
G01 X29.8476 Y11.9668 
G01 X29.8139 Y11.9084 
G01 X29.7662 Y11.8607 
G01 X29.7077 Y11.8270 
G01 X29.6426 Y11.8095 
G01 X29.3227 Y11.8095 
G01 X29.3227 Y11.4896 
G01 X29.3053 Y11.4245 
G01 X29.2715 Y11.3660 
G01 X29.2238 Y11.3184 
G01 X29.1654 Y11.2846 
G01 X29.1003 Y11.2672 
G01 X29.0328 Y11.2672 
G01 X28.9676 Y11.2846 
G01 X28.9092 Y11.3184 
G01 X28.8615 Y11.3660 
G01 X28.8278 Y11.4245 
G01 X28.8103 Y11.4896 
G01 X28.8103 Y11.8095 
G01 X28.4905 Y11.8095 
G01 X28.4253 Y11.8270 
G01 X28.3669 Y11.8607 
G01 X28.3192 Y11.9084 
G01 X28.2855 Y11.9668 
G01 X28.2680 Y12.0320 
G01 X28.2680 Y12.0994 
G01 X28.2855 Y12.1646 
G01 X28.3192 Y12.2230 
G01 X28.3669 Y12.2707 
G01 X28.4253 Y12.3044 
G01 X28.4905 Y12.3219 
G01 X28.8103 Y12.3219 
G01 X28.8103 Y12.6418 
G01 X28.8278 Y12.7069 
G01 X28.8615 Y12.7653 
G01 X28.9092 Y12.8130 
G00 Z2.5400  
G00 X30.1734 Y16.9197 
G01 Z-0.1778 F254   
G01 X30.1229 Y17.0071 F508   
G01 X30.0968 Y17.1045 
G01 X30.0968 Y22.9848 
G01 X29.0168 Y22.9848 
G01 X29.0070 Y22.9612 
G01 X28.9564 Y22.9106 
G01 X28.8902 Y22.8832 
G01 X26.6088 Y22.8832 
G01 X26.5426 Y22.9106 
G01 X26.4920 Y22.9612 
G01 X26.4646 Y23.0274 
G01 X26.4646 Y23.7086 
G01 X26.4920 Y23.7748 
G01 X26.5426 Y23.8254 
G01 X26.6088 Y23.8528 
G01 X28.8902 Y23.8528 
G01 X28.9564 Y23.8254 
G01 X29.0070 Y23.7748 
G01 X29.0168 Y23.7512 
G01 X30.5304 Y23.7512 
G01 X30.6279 Y23.7251 
G01 X30.7153 Y23.6746 
G01 X30.7866 Y23.6033 
G01 X30.8371 Y23.5159 
G01 X30.8632 Y23.4184 
G01 X30.8632 Y17.5382 
G01 X31.3116 Y17.5382 
G01 X31.3310 Y17.5576 
G01 X31.3972 Y17.5850 
G01 X33.6688 Y17.5850 
G01 X33.7350 Y17.5576 
G01 X33.7856 Y17.5070 
G01 X33.8130 Y17.4408 
G01 X33.8130 Y16.8692 
G01 X33.7856 Y16.8030 
G01 X33.7350 Y16.7524 
G01 X33.6688 Y16.7250 
G01 X31.3972 Y16.7250 
G01 X31.3310 Y16.7524 
G01 X31.3116 Y16.7718 
G01 X30.4295 Y16.7718 
G01 X30.3321 Y16.7979 
G01 X30.2447 Y16.8484 
G01 X30.1734 Y16.9197 
G00 Z2.5400  
G00 X37.6390 Y16.2776 
G01 Z-0.1778 F254   
G01 X37.7052 Y16.3050 F508   
G01 X38.6162 Y16.3050 
G01 X38.6539 Y16.3268 
G01 X38.7772 Y16.3598 
G01 X43.0762 Y16.3598 
G01 X43.0762 Y17.0920 
G01 X42.2552 Y17.0920 
G01 X42.1890 Y17.1194 
G01 X42.1384 Y17.1700 
G01 X42.1110 Y17.2362 
G01 X42.1110 Y18.5778 
G01 X42.1384 Y18.6440 
G01 X42.1890 Y18.6946 
G01 X42.2552 Y18.7220 
G01 X44.8668 Y18.7220 
G01 X44.9330 Y18.6946 
G01 X44.9836 Y18.6440 
G01 X45.0110 Y18.5778 
G01 X45.0110 Y17.2362 
G01 X44.9836 Y17.1700 
G01 X44.9330 Y17.1194 
G01 X44.8668 Y17.0920 
G01 X44.0458 Y17.0920 
G01 X44.0458 Y15.8112 
G01 X44.0128 Y15.6879 
G01 X43.9489 Y15.5773 
G01 X43.8587 Y15.4871 
G01 X43.7481 Y15.4232 
G01 X43.6248 Y15.3902 
G01 X38.7772 Y15.3902 
G01 X38.6539 Y15.4232 
G01 X38.6162 Y15.4450 
G01 X37.7052 Y15.4450 
G01 X37.6390 Y15.4724 
G01 X37.5884 Y15.5230 
G01 X37.5610 Y15.5892 
G01 X37.5610 Y16.1608 
G01 X37.5884 Y16.2270 
G01 X37.6390 Y16.2776 
G00 Z2.5400  
G00 X37.6390 Y18.0124 
G01 Z-0.1778 F254   
G01 X37.5884 Y18.0630 F508   
G01 X37.5610 Y18.1292 
G01 X37.5610 Y18.7008 
G01 X37.5884 Y18.7670 
G01 X37.6390 Y18.8176 
G01 X37.7052 Y18.8450 
G01 X38.6162 Y18.8450 
G01 X38.6539 Y18.8668 
G01 X38.7772 Y18.8998 
G01 X39.1392 Y18.8998 
G01 X39.1392 Y20.5108 
G01 X39.1722 Y20.6341 
G01 X39.2361 Y20.7447 
G01 X39.3263 Y20.8349 
G01 X39.4369 Y20.8988 
G01 X39.5602 Y20.9318 
G01 X42.1110 Y20.9318 
G01 X42.1110 Y21.1178 
G01 X42.1384 Y21.1840 
G01 X42.1890 Y21.2346 
G01 X42.2552 Y21.2620 
G01 X44.8668 Y21.2620 
G01 X44.9330 Y21.2346 
G01 X44.9836 Y21.1840 
G01 X45.0110 Y21.1178 
G01 X45.0110 Y19.7762 
G01 X44.9836 Y19.7100 
G01 X44.9330 Y19.6594 
G01 X44.8668 Y19.6320 
G01 X42.2552 Y19.6320 
G01 X42.1890 Y19.6594 
G01 X42.1384 Y19.7100 
G01 X42.1110 Y19.7762 
G01 X42.1110 Y19.9622 
G01 X40.1088 Y19.9622 
G01 X40.1088 Y18.7303 
G01 X40.1210 Y18.7008 
G01 X40.1210 Y18.1292 
G01 X40.0936 Y18.0630 
G01 X40.0430 Y18.0124 
G01 X39.9768 Y17.9850 
G01 X39.8488 Y17.9850 
G01 X39.8111 Y17.9632 
G01 X39.6878 Y17.9302 
G01 X38.7772 Y17.9302 
G01 X38.6539 Y17.9632 
G01 X38.6162 Y17.9850 
G01 X37.7052 Y17.9850 
G01 X37.6390 Y18.0124 
G00 Z2.5400  
G00 X46.5560 Y17.7229 
G01 Z-0.1778 F254   
G01 X46.5560 Y31.9002 F508   
G01 X38.9042 Y31.9002 
G01 X38.7809 Y31.9332 
G01 X38.7432 Y31.9550 
G01 X37.8322 Y31.9550 
G01 X37.7660 Y31.9824 
G01 X37.7154 Y32.0330 
G01 X37.6880 Y32.0992 
G01 X37.6880 Y32.6708 
G01 X37.7154 Y32.7370 
G01 X37.7660 Y32.7876 
G01 X37.8322 Y32.8150 
G01 X38.7432 Y32.8150 
G01 X38.7809 Y32.8368 
G01 X38.9042 Y32.8698 
G01 X47.0538 Y32.8698 
G01 X47.1771 Y32.8368 
G01 X47.2877 Y32.7729 
G01 X47.3779 Y32.6827 
G01 X47.4418 Y32.5721 
G01 X47.4748 Y32.4488 
G01 X47.4748 Y32.3212 
G01 X47.4418 Y32.1979 
G01 X47.4240 Y32.1671 
G01 X47.4240 Y18.2140 
G01 X47.5710 Y18.2140 
G01 X47.5710 Y18.5778 
G01 X47.5984 Y18.6440 
G01 X47.6490 Y18.6946 
G01 X47.7152 Y18.7220 
G01 X50.3268 Y18.7220 
G01 X50.3930 Y18.6946 
G01 X50.4436 Y18.6440 
G01 X50.4710 Y18.5778 
G01 X50.4710 Y17.2362 
G01 X50.4436 Y17.1700 
G01 X50.3930 Y17.1194 
G01 X50.3268 Y17.0920 
G01 X47.7152 Y17.0920 
G01 X47.6490 Y17.1194 
G01 X47.5984 Y17.1700 
G01 X47.5710 Y17.2362 
G01 X47.5710 Y17.3460 
G01 X46.9329 Y17.3460 
G01 X46.8225 Y17.3756 
G01 X46.7235 Y17.4327 
G01 X46.6427 Y17.5135 
G01 X46.5856 Y17.6125 
G01 X46.5560 Y17.7229 
G00 Z2.5400  
G00 X47.5984 Y19.7100 
G01 Z-0.1778 F254   
G01 X47.5710 Y19.7762 F508   
G01 X47.5710 Y21.1178 
G01 X47.5984 Y21.1840 
G01 X47.6490 Y21.2346 
G01 X47.7152 Y21.2620 
G01 X48.5362 Y21.2620 
G01 X48.5362 Y34.4402 
G01 X38.9042 Y34.4402 
G01 X38.7809 Y34.4732 
G01 X38.7432 Y34.4950 
G01 X37.8322 Y34.4950 
G01 X37.7660 Y34.5224 
G01 X37.7154 Y34.5730 
G01 X37.6880 Y34.6392 
G01 X37.6880 Y35.2108 
G01 X37.7154 Y35.2770 
G01 X37.7660 Y35.3276 
G01 X37.8322 Y35.3550 
G01 X38.7432 Y35.3550 
G01 X38.7809 Y35.3768 
G01 X38.9042 Y35.4098 
G01 X49.0848 Y35.4098 
G01 X49.2081 Y35.3768 
G01 X49.3187 Y35.3129 
G01 X49.4089 Y35.2227 
G01 X49.4728 Y35.1121 
G01 X49.5058 Y34.9888 
G01 X49.5058 Y21.2620 
G01 X50.3268 Y21.2620 
G01 X50.3930 Y21.2346 
G01 X50.4436 Y21.1840 
G01 X50.4710 Y21.1178 
G01 X50.4710 Y19.7762 
G01 X50.4436 Y19.7100 
G01 X50.3930 Y19.6594 
G01 X50.3268 Y19.6320 
G01 X47.7152 Y19.6320 
G01 X47.6490 Y19.6594 
G01 X47.5984 Y19.7100 
G00 Z2.5400  
G00 X31.2233 Y25.6014 
G01 Z-0.1778 F254   
G01 X31.1359 Y25.5509 F508   
G01 X31.0385 Y25.5248 
G01 X29.0168 Y25.5248 
G01 X29.0070 Y25.5012 
G01 X28.9564 Y25.4506 
G01 X28.8902 Y25.4232 
G01 X26.6088 Y25.4232 
G01 X26.5426 Y25.4506 
G01 X26.4920 Y25.5012 
G01 X26.4646 Y25.5674 
G01 X26.4646 Y26.2486 
G01 X26.4920 Y26.3148 
G01 X26.5426 Y26.3654 
G01 X26.6088 Y26.3928 
G01 X28.8902 Y26.3928 
G01 X28.9564 Y26.3654 
G01 X29.0070 Y26.3148 
G01 X29.0168 Y26.2912 
G01 X30.6048 Y26.2912 
G01 X30.6048 Y32.4455 
G01 X30.6309 Y32.5429 
G01 X30.6814 Y32.6303 
G01 X30.7527 Y32.7016 
G01 X30.8401 Y32.7521 
G01 X30.9375 Y32.7782 
G01 X31.4386 Y32.7782 
G01 X31.4580 Y32.7976 
G01 X31.5242 Y32.8250 
G01 X33.7958 Y32.8250 
G01 X33.8620 Y32.7976 
G01 X33.9126 Y32.7470 
G01 X33.9400 Y32.6808 
G01 X33.9400 Y32.1092 
G01 X33.9126 Y32.0430 
G01 X33.8620 Y31.9924 
G01 X33.7958 Y31.9650 
G01 X31.5242 Y31.9650 
G01 X31.4580 Y31.9924 
G01 X31.4386 Y32.0118 
G01 X31.3712 Y32.0118 
G01 X31.3712 Y25.8575 
G01 X31.3451 Y25.7601 
G01 X31.2946 Y25.6727 
G01 X31.2233 Y25.6014 
G00 Z2.5400  
G00 X29.9533 Y26.8714 
G01 Z-0.1778 F254   
G01 X29.8659 Y26.8209 F508   
G01 X29.7685 Y26.7948 
G01 X29.0168 Y26.7948 
G01 X29.0070 Y26.7712 
G01 X28.9564 Y26.7206 
G01 X28.8902 Y26.6932 
G01 X26.6088 Y26.6932 
G01 X26.5426 Y26.7206 
G01 X26.4920 Y26.7712 
G01 X26.4646 Y26.8374 
G01 X26.4646 Y27.5186 
G01 X26.4920 Y27.5848 
G01 X26.5426 Y27.6354 
G01 X26.6088 Y27.6628 
G01 X28.8902 Y27.6628 
G01 X28.9564 Y27.6354 
G01 X29.0070 Y27.5848 
G01 X29.0168 Y27.5612 
G01 X29.3348 Y27.5612 
G01 X29.3348 Y33.7154 
G01 X29.3609 Y33.8129 
G01 X29.4114 Y33.9003 
G01 X29.4827 Y33.9716 
G01 X29.5701 Y34.0221 
G01 X29.6675 Y34.0482 
G01 X31.4386 Y34.0482 
G01 X31.4580 Y34.0676 
G01 X31.5242 Y34.0950 
G01 X33.7958 Y34.0950 
G01 X33.8620 Y34.0676 
G01 X33.9126 Y34.0170 
G01 X33.9400 Y33.9508 
G01 X33.9400 Y33.3792 
G01 X33.9126 Y33.3130 
G01 X33.8620 Y33.2624 
G01 X33.7958 Y33.2350 
G01 X31.5242 Y33.2350 
G01 X31.4580 Y33.2624 
G01 X31.4386 Y33.2818 
G01 X30.1012 Y33.2818 
G01 X30.1012 Y27.1275 
G01 X30.0751 Y27.0301 
G01 X30.0246 Y26.9427 
G01 X29.9533 Y26.8714 
G00 Z2.5400  
G00 X23.8274 Y26.8374 
G01 Z-0.1778 F254   
G01 X23.8000 Y26.7712 F508   
G01 X23.7494 Y26.7206 
G01 X23.6832 Y26.6932 
G01 X21.4018 Y26.6932 
G01 X21.3356 Y26.7206 
G01 X21.2850 Y26.7712 
G01 X21.2576 Y26.8374 
G01 X21.2576 Y27.5186 
G01 X21.2850 Y27.5848 
G01 X21.3356 Y27.6354 
G01 X21.4018 Y27.6628 
G01 X23.6832 Y27.6628 
G01 X23.7494 Y27.6354 
G01 X23.8000 Y27.5848 
G01 X23.8274 Y27.5186 
G01 X23.8274 Y26.8374 
G00 Z2.5400  
G00 X23.8000 Y26.3148 
G01 Z-0.1778 F254   
G01 X23.8274 Y26.2486 F508   
G01 X23.8274 Y25.5674 
G01 X23.8000 Y25.5012 
G01 X23.7494 Y25.4506 
G01 X23.6832 Y25.4232 
G01 X21.4018 Y25.4232 
G01 X21.3356 Y25.4506 
G01 X21.2850 Y25.5012 
G01 X21.2576 Y25.5674 
G01 X21.2576 Y26.2486 
G01 X21.2850 Y26.3148 
G01 X21.3356 Y26.3654 
G01 X21.4018 Y26.3928 
G01 X23.6832 Y26.3928 
G01 X23.7494 Y26.3654 
G01 X23.8000 Y26.3148 
G00 Z2.5400  
G00 X23.8000 Y23.7748 
G01 Z-0.1778 F254   
G01 X23.8274 Y23.7086 F508   
G01 X23.8274 Y23.0274 
G01 X23.8000 Y22.9612 
G01 X23.7494 Y22.9106 
G01 X23.6832 Y22.8832 
G01 X21.4018 Y22.8832 
G01 X21.3356 Y22.9106 
G01 X21.2850 Y22.9612 
G01 X21.2752 Y22.9848 
G01 X16.8405 Y22.9848 
G01 X16.7431 Y23.0109 
G01 X16.6557 Y23.0614 
G01 X16.5844 Y23.1327 
G01 X16.5339 Y23.2201 
G01 X16.5078 Y23.3175 
G01 X16.5078 Y27.3800 
G01 X16.2202 Y27.3800 
G01 X16.1540 Y27.4074 
G01 X16.1034 Y27.4580 
G01 X16.0760 Y27.5242 
G01 X16.0760 Y28.4468 
G01 X15.1660 Y28.4468 
G01 X15.1660 Y27.5242 
G01 X15.1386 Y27.4580 
G01 X15.0880 Y27.4074 
G01 X15.0218 Y27.3800 
G01 X13.6802 Y27.3800 
G01 X13.6140 Y27.4074 
G01 X13.5634 Y27.4580 
G01 X13.5360 Y27.5242 
G01 X13.5360 Y30.1358 
G01 X13.5634 Y30.2020 
G01 X13.6140 Y30.2526 
G01 X13.6802 Y30.2800 
G01 X15.0218 Y30.2800 
G01 X15.0880 Y30.2526 
G01 X15.1386 Y30.2020 
G01 X15.1660 Y30.1358 
G01 X15.1660 Y29.2132 
G01 X16.0760 Y29.2132 
G01 X16.0760 Y30.1358 
G01 X16.1034 Y30.2020 
G01 X16.1540 Y30.2526 
G01 X16.2202 Y30.2800 
G01 X17.5618 Y30.2800 
G01 X17.6280 Y30.2526 
G01 X17.6786 Y30.2020 
G01 X17.7060 Y30.1358 
G01 X17.7060 Y28.9582 
G01 X18.5525 Y28.9582 
G01 X18.5525 Y29.2458 
G01 X18.5799 Y29.3120 
G01 X18.6305 Y29.3626 
G01 X18.6967 Y29.3900 
G01 X20.6733 Y29.3900 
G01 X20.7395 Y29.3626 
G01 X20.7901 Y29.3120 
G01 X20.8175 Y29.2458 
G01 X20.8175 Y27.9042 
G01 X20.7901 Y27.8380 
G01 X20.7395 Y27.7874 
G01 X20.6733 Y27.7600 
G01 X18.6967 Y27.7600 
G01 X18.6305 Y27.7874 
G01 X18.5799 Y27.8380 
G01 X18.5525 Y27.9042 
G01 X18.5525 Y28.1918 
G01 X17.7060 Y28.1918 
G01 X17.7060 Y27.5242 
G01 X17.6786 Y27.4580 
G01 X17.6280 Y27.4074 
G01 X17.5618 Y27.3800 
G01 X17.2742 Y27.3800 
G01 X17.2742 Y23.7512 
G01 X21.2752 Y23.7512 
G01 X21.2850 Y23.7748 
G01 X21.3356 Y23.8254 
G01 X21.4018 Y23.8528 
G01 X23.6832 Y23.8528 
G01 X23.7494 Y23.8254 
G01 X23.8000 Y23.7748 
G00 Z2.5400  
G00 X24.0355 Y29.4001 
G01 Z-0.1778 F254   
G01 X24.0018 Y29.4585 F508   
G01 X23.9843 Y29.5236 
G01 X23.9843 Y29.8435 
G01 X23.6645 Y29.8435 
G01 X23.5993 Y29.8610 
G01 X23.5409 Y29.8947 
G01 X23.4932 Y29.9424 
G01 X23.4595 Y30.0008 
G01 X23.4420 Y30.0660 
G01 X23.4420 Y30.1334 
G01 X23.4595 Y30.1986 
G01 X23.4932 Y30.2570 
G01 X23.5409 Y30.3047 
G01 X23.5993 Y30.3384 
G01 X23.6645 Y30.3559 
G01 X23.9843 Y30.3559 
G01 X23.9843 Y30.6758 
G01 X24.0018 Y30.7409 
G01 X24.0355 Y30.7993 
G01 X24.0832 Y30.8470 
G01 X24.1416 Y30.8808 
G01 X24.2068 Y30.8982 
G01 X24.2743 Y30.8982 
G01 X24.3394 Y30.8808 
G01 X24.3978 Y30.8470 
G01 X24.4455 Y30.7993 
G01 X24.4793 Y30.7409 
G01 X24.4967 Y30.6758 
G01 X24.4967 Y30.3559 
G01 X24.8166 Y30.3559 
G01 X24.8817 Y30.3384 
G01 X24.9402 Y30.3047 
G01 X24.9879 Y30.2570 
G01 X25.0216 Y30.1986 
G01 X25.0391 Y30.1334 
G01 X25.0391 Y30.0660 
G01 X25.0216 Y30.0008 
G01 X24.9879 Y29.9424 
G01 X24.9402 Y29.8947 
G01 X24.8817 Y29.8610 
G01 X24.8166 Y29.8435 
G01 X24.4967 Y29.8435 
G01 X24.4967 Y29.5236 
G01 X24.4793 Y29.4585 
G01 X24.4455 Y29.4001 
G01 X24.3978 Y29.3524 
G01 X24.3394 Y29.3186 
G01 X24.2743 Y29.3012 
G01 X24.2068 Y29.3012 
G01 X24.1416 Y29.3186 
G01 X24.0832 Y29.3524 
G01 X24.0355 Y29.4001 
G00 Z2.5400  
G00 X24.0616 Y35.5034 
G01 Z-0.1778 F254   
G01 X24.0217 Y35.5725 F508   
G01 X23.9818 Y35.5034 
G01 X23.9223 Y35.4439 
G01 X23.8494 Y35.4018 
G01 X23.7681 Y35.3800 
G01 X23.1839 Y35.3800 
G01 X23.1026 Y35.4018 
G01 X23.0297 Y35.4439 
G01 X22.9702 Y35.5034 
G01 X22.9281 Y35.5763 
G01 X22.9074 Y35.6536 
G01 X22.8867 Y35.5763 
G01 X22.8446 Y35.5034 
G01 X22.7851 Y35.4439 
G01 X22.7122 Y35.4018 
G01 X22.6309 Y35.3800 
G01 X22.5467 Y35.3800 
G01 X22.4654 Y35.4018 
G01 X22.3925 Y35.4439 
G01 X22.3330 Y35.5034 
G01 X22.2909 Y35.5763 
G01 X22.2691 Y35.6576 
G01 X22.2691 Y36.3172 
G01 X22.2064 Y36.3799 
G01 X21.9713 Y36.3799 
G01 X21.9086 Y36.3172 
G01 X21.9086 Y35.6576 
G01 X21.8868 Y35.5763 
G01 X21.8447 Y35.5034 
G01 X21.7852 Y35.4439 
G01 X21.7123 Y35.4018 
G01 X21.6309 Y35.3800 
G01 X21.5468 Y35.3800 
G01 X21.4655 Y35.4018 
G01 X21.3926 Y35.4439 
G01 X21.3330 Y35.5034 
G01 X21.2909 Y35.5763 
G01 X21.2702 Y35.6536 
G01 X21.2495 Y35.5763 
G01 X21.2074 Y35.5034 
G01 X21.1479 Y35.4439 
G01 X21.0750 Y35.4018 
G01 X20.9937 Y35.3800 
G01 X20.1596 Y35.3800 
G01 X20.0783 Y35.4018 
G01 X20.0054 Y35.4439 
G01 X19.9459 Y35.5034 
G01 X19.6959 Y35.7534 
G01 X19.6538 Y35.8263 
G01 X19.6320 Y35.9076 
G01 X19.6320 Y36.4917 
G01 X19.6538 Y36.5730 
G01 X19.6959 Y36.6459 
G01 X19.7554 Y36.7055 
G01 X20.0054 Y36.9554 
G01 X20.0783 Y36.9975 
G01 X20.1596 Y37.0193 
G01 X20.9937 Y37.0193 
G01 X21.0750 Y36.9975 
G01 X21.1479 Y36.9554 
G01 X21.2074 Y36.8959 
G01 X21.2495 Y36.8230 
G01 X21.2692 Y36.7498 
G01 X21.2692 Y37.2417 
G01 X21.2909 Y37.3230 
G01 X21.3330 Y37.3959 
G01 X21.3926 Y37.4554 
G01 X21.4655 Y37.4975 
G01 X21.5468 Y37.5193 
G01 X21.6309 Y37.5193 
G01 X21.7123 Y37.4975 
G01 X21.7852 Y37.4554 
G01 X21.8447 Y37.3959 
G01 X21.8868 Y37.3230 
G01 X21.9086 Y37.2417 
G01 X21.9086 Y37.0193 
G01 X22.3809 Y37.0193 
G01 X22.4622 Y36.9975 
G01 X22.5351 Y36.9554 
G01 X22.7851 Y36.7055 
G01 X22.8446 Y36.6459 
G01 X22.8867 Y36.5730 
G01 X22.9085 Y36.4917 
G01 X22.9085 Y35.7498 
G01 X22.9281 Y35.8231 
G01 X22.9702 Y35.8960 
G01 X23.0297 Y35.9555 
G01 X23.1026 Y35.9976 
G01 X23.1563 Y36.0120 
G01 X23.1563 Y36.3873 
G01 X23.1026 Y36.4017 
G01 X23.0297 Y36.4438 
G01 X22.9702 Y36.5033 
G01 X22.9281 Y36.5762 
G01 X22.9063 Y36.6575 
G01 X22.9063 Y36.7417 
G01 X22.9281 Y36.8230 
G01 X22.9702 Y36.8959 
G01 X23.0297 Y36.9554 
G01 X23.1026 Y36.9975 
G01 X23.1839 Y37.0193 
G01 X23.2109 Y37.0193 
G01 X23.1781 Y37.0762 
G01 X23.1563 Y37.1575 
G01 X23.1563 Y37.4916 
G01 X23.1781 Y37.5730 
G01 X23.2202 Y37.6459 
G01 X23.2797 Y37.7054 
G01 X23.3526 Y37.7475 
G01 X23.4339 Y37.7693 
G01 X23.5181 Y37.7693 
G01 X23.5994 Y37.7475 
G01 X23.6723 Y37.7054 
G01 X23.7318 Y37.6459 
G01 X23.7739 Y37.5730 
G01 X23.7957 Y37.4916 
G01 X23.7957 Y37.1575 
G01 X23.7739 Y37.0762 
G01 X23.7318 Y37.0033 
G01 X23.6781 Y36.9496 
G01 X23.7318 Y36.8959 
G01 X23.7739 Y36.8230 
G01 X23.7957 Y36.7417 
G01 X23.7957 Y36.0120 
G01 X23.8494 Y35.9976 
G01 X23.9223 Y35.9555 
G01 X23.9818 Y35.8960 
G01 X23.9977 Y35.8684 
G01 X23.9977 Y36.7417 
G01 X24.0195 Y36.8230 
G01 X24.0616 Y36.8959 
G01 X24.1211 Y36.9554 
G01 X24.1941 Y36.9975 
G01 X24.2754 Y37.0193 
G01 X25.1095 Y37.0193 
G01 X25.1908 Y36.9975 
G01 X25.2637 Y36.9554 
G01 X25.5137 Y36.7055 
G01 X25.5732 Y36.6459 
G01 X25.6153 Y36.5730 
G01 X25.6371 Y36.4917 
G01 X25.6371 Y35.6576 
G01 X25.6153 Y35.5763 
G01 X25.5732 Y35.5034 
G01 X25.5137 Y35.4439 
G01 X25.4408 Y35.4018 
G01 X25.3595 Y35.3800 
G01 X25.2753 Y35.3800 
G01 X25.1940 Y35.4018 
G01 X25.1211 Y35.4439 
G01 X25.0615 Y35.5034 
G01 X25.0195 Y35.5763 
G01 X24.9977 Y35.6576 
G01 X24.9977 Y36.3172 
G01 X24.9350 Y36.3799 
G01 X24.6371 Y36.3799 
G01 X24.6371 Y35.6576 
G01 X24.6154 Y35.5763 
G01 X24.5733 Y35.5034 
G01 X24.5138 Y35.4439 
G01 X24.4408 Y35.4018 
G01 X24.3595 Y35.3800 
G01 X24.2754 Y35.3800 
G01 X24.1941 Y35.4018 
G01 X24.1211 Y35.4439 
G01 X24.0616 Y35.5034 
G00 Z2.5400  
G00 X21.2692 Y35.7498 
G01 Z-0.1778 F254   
G01 X21.2692 Y36.6495 F508   
G01 X21.2495 Y36.5762 
G01 X21.2074 Y36.5033 
G01 X21.1479 Y36.4438 
G01 X21.0750 Y36.4017 
G01 X20.9937 Y36.3799 
G01 X20.3341 Y36.3799 
G01 X20.2714 Y36.3172 
G01 X20.2714 Y36.0821 
G01 X20.3341 Y36.0194 
G01 X20.9937 Y36.0194 
G01 X21.0750 Y35.9976 
G01 X21.1479 Y35.9555 
G01 X21.2074 Y35.8960 
G01 X21.2495 Y35.8231 
G01 X21.2692 Y35.7498 
G00 Z2.5400  
G00 X16.8122 Y37.0067 
G01 Z-0.1778 F254   
G01 X16.7537 Y36.9730 F508   
G01 X16.6886 Y36.9555 
G01 X15.5365 Y36.9555 
G01 X15.4713 Y36.9730 
G01 X15.4129 Y37.0067 
G01 X15.3652 Y37.0544 
G01 X15.3315 Y37.1128 
G01 X15.3140 Y37.1780 
G01 X15.3140 Y37.2454 
G01 X15.3315 Y37.3106 
G01 X15.3652 Y37.3690 
G01 X15.4129 Y37.4167 
G01 X15.4713 Y37.4504 
G01 X15.5365 Y37.4679 
G01 X16.6886 Y37.4679 
G01 X16.7537 Y37.4504 
G01 X16.8122 Y37.4167 
G01 X16.8599 Y37.3690 
G01 X16.8936 Y37.3106 
G01 X16.9111 Y37.2454 
G01 X16.9111 Y37.1780 
G01 X16.8936 Y37.1128 
G01 X16.8599 Y37.0544 
G01 X16.8122 Y37.0067 
G00 Z2.5400  
G00 Z12.7000 
M05
M02
